(WARNING Multiple tools found.  This post does not support tool)
(changes.  You should repost and select True for Multiple Files)
(in the post properties.)
(Warning: Multiple tools found.  This post does not support tool)
(changes.  You should repost and select True for Multiple Files)
(in the post properties.)

(Made in : Autodesk CAM Post Processor)
(G-Code optimized for Grbl 1.1 / BlackBox controller)
(OpenBuilds CNC : GRBL/BlackBox)
(Post-Processor : OpenbuildsFusion360PostGrbl.cps V1.0.43)
(Units = mm)

(Arcs are limited to the XY plane: if you want vertical arcs then)
(edit allowedCircularPlanes in the CPS file)

(Drawing name : Intro to 2.5 Axis v1)
(Program Name : FULLTEST)

(8 Operations :)
(1 : Adaptive1)
(  Work Coordinate System : G54)
(  Tool 5: Flat End Mill 5 Flutes, Diam = 19.05mm, Len = 60.32mm)
(  Spindle : RPM = 5000)
(  Machining time : 0h:50m:38s)
(2 : 2D Pocket1)
(  Work Coordinate System : G54)
(  Tool 9: Flat End Mill 2 Flutes, Diam = 9.525mm, Len = 31.75mm)
(  Spindle : RPM = 5000)
(  Machining time : 0h:13m:40s)
(3 : 2D Adaptive1)
(  Work Coordinate System : G54)
(  Tool 9: Flat End Mill 2 Flutes, Diam = 9.525mm, Len = 31.75mm)
(  Spindle : RPM = 5000)
(  Machining time : 0h:46m:42s)
(4 : 2D Pocket2)
(  Work Coordinate System : G54)
(  Tool 9: Flat End Mill 2 Flutes, Diam = 9.525mm, Len = 31.75mm)
(  Spindle : RPM = 5000)
(  Machining time : 0h:3m:59s)
(5 : Drill2 2)
(  Work Coordinate System : G54)
(  Tool 11: Drill 1 Flutes, Diam = 12.7mm, Len = 127.00mm)
(  Spindle : RPM = 2290)
(  Machining time : 0h:0m:23s)
(6 : Drill3 2)
(  Work Coordinate System : G54)
(  Tool 10: Drill 1 Flutes, Diam = 7.938mm, Len = 79.38mm)
(  Spindle : RPM = 5000)
(  Machining time : 0h:0m:32s)
(7 : Bore1 2)
(  Work Coordinate System : G54)
(  Tool 9: Flat End Mill 2 Flutes, Diam = 9.525mm, Len = 31.75mm)
(  Spindle : RPM = 5514)
(  Machining time : 0h:12m:44s)
(8 : 2D Contour1)
(  Work Coordinate System : G54)
(  Tool 50: Chamfer Mill 3 Flutes, Diam = 12.7mm, Len = 6.35mm)
(  Spindle : RPM = 5000)
(  Machining time : 0h:6m:39s)

G90 G94 G17
G21


(Operation 1 of 8 : Adaptive1)
G54
(This relies on homing, see https://openbuilds.com/search/127200199/?q=G53+fusion )
G53 G0 Z-10
G0 X247.683 Y63.959
M3 S5000
G4 P1.8
G0 X247.683 Y63.959 Z19.24
Z9.08
Z2.54
G1 X247.416 Y64.253 Z2.526 F333
X247.138 Y64.537 Z2.512
X246.849 Y64.81 Z2.498
X246.549 Y65.071 Z2.484
X246.24 Y65.321 Z2.471
X245.921 Y65.558 Z2.457
X245.593 Y65.783 Z2.443
X245.256 Y65.995 Z2.429
X244.912 Y66.193 Z2.415
X244.56 Y66.378 Z2.401
X244.201 Y66.549 Z2.387
X243.836 Y66.706 Z2.373
X243.465 Y66.848 Z2.36
X243.088 Y66.976 Z2.346
X242.707 Y67.089 Z2.332
X242.322 Y67.187 Z2.318
X241.933 Y67.27 Z2.304
X241.542 Y67.338 Z2.29
X241.148 Y67.391 Z2.276
X240.752 Y67.428 Z2.262
X240.355 Y67.449 Z2.248
X239.957 Y67.455 Z2.235
X239.56 Y67.446 Z2.221
X239.163 Y67.421 Z2.207
X238.768 Y67.381 Z2.193
X238.374 Y67.325 Z2.179
X237.983 Y67.254 Z2.165
X237.595 Y67.167 Z2.151
X237.211 Y67.066 Z2.137
X236.831 Y66.95 Z2.124
X236.455 Y66.819 Z2.11
X236.085 Y66.673 Z2.096
X235.721 Y66.513 Z2.082
X235.364 Y66.339 Z2.068
X235.014 Y66.152 Z2.054
X234.671 Y65.95 Z2.04
X234.336 Y65.736 Z2.026
X234.01 Y65.509 Z2.012
X233.693 Y65.269 Z1.999
X233.386 Y65.017 Z1.985
X233.089 Y64.753 Z1.971
X232.802 Y64.477 Z1.957
X232.526 Y64.191 Z1.943
X232.262 Y63.894 Z1.929
X232.009 Y63.587 Z1.915
X231.769 Y63.271 Z1.901
X231.541 Y62.945 Z1.888
X231.326 Y62.611 Z1.874
X231.124 Y62.268 Z1.86
X230.935 Y61.918 Z1.846
X230.761 Y61.561 Z1.832
X230.601 Y61.198 Z1.818
X230.455 Y60.829 Z1.804
X230.324 Y60.455 Z1.79
X230.207 Y60.076 Z1.776
X230.105 Y59.693 Z1.763
X230.019 Y59.306 Z1.749
X229.947 Y58.916 Z1.735
X229.891 Y58.523 Z1.721
X229.85 Y58.129 Z1.707
X229.824 Y57.733 Z1.693
X229.814 Y57.337 Z1.679
X229.82 Y56.94 Z1.665
X229.841 Y56.544 Z1.652
X229.877 Y56.149 Z1.638
X229.929 Y55.756 Z1.624
X229.996 Y55.365 Z1.61
X230.078 Y54.978 Z1.596
X230.175 Y54.593 Z1.582
X230.287 Y54.213 Z1.568
X230.414 Y53.837 Z1.554
X230.556 Y53.467 Z1.54
X230.712 Y53.102 Z1.527
X230.882 Y52.744 Z1.513
X231.065 Y52.392 Z1.499
X231.263 Y52.048 Z1.485
X231.473 Y51.712 Z1.471
X231.697 Y51.385 Z1.457
X231.933 Y51.066 Z1.443
X232.182 Y50.757 Z1.429
X232.442 Y50.458 Z1.416
X232.714 Y50.169 Z1.402
X232.997 Y49.891 Z1.388
X233.29 Y49.625 Z1.374
X233.594 Y49.37 Z1.36
X233.907 Y49.127 Z1.346
X234.23 Y48.896 Z1.332
X234.561 Y48.678 Z1.318
X234.901 Y48.473 Z1.304
X235.248 Y48.282 Z1.291
X235.602 Y48.104 Z1.277
X235.964 Y47.941 Z1.263
X236.331 Y47.791 Z1.249
X236.704 Y47.656 Z1.235
X237.082 Y47.536 Z1.221
X237.464 Y47.43 Z1.207
X237.85 Y47.34 Z1.193
X238.239 Y47.264 Z1.18
X238.631 Y47.204 Z1.166
X239.025 Y47.159 Z1.152
X239.421 Y47.13 Z1.138
X239.817 Y47.116 Z1.124
X240.213 Y47.117 Z1.11
X240.608 Y47.134 Z1.096
X241.002 Y47.166 Z1.082
X241.395 Y47.214 Z1.068
X241.785 Y47.277 Z1.055
X242.173 Y47.355 Z1.041
X242.558 Y47.448 Z1.027
X242.938 Y47.556 Z1.013
X243.314 Y47.679 Z0.999
X243.685 Y47.817 Z0.985
X244.05 Y47.969 Z0.971
X244.409 Y48.135 Z0.957
X244.762 Y48.314 Z0.944
X245.107 Y48.508 Z0.93
X245.444 Y48.715 Z0.916
X245.773 Y48.934 Z0.902
X246.093 Y49.167 Z0.888
X246.404 Y49.412 Z0.874
X246.705 Y49.668 Z0.86
X246.996 Y49.936 Z0.846
X247.276 Y50.216 Z0.832
X247.545 Y50.506 Z0.819
X247.802 Y50.806 Z0.805
X248.048 Y51.116 Z0.791
X248.281 Y51.436 Z0.777
X248.502 Y51.764 Z0.763
X248.709 Y52.101 Z0.749
X248.904 Y52.445 Z0.735
X249.084 Y52.797 Z0.721
X249.251 Y53.156 Z0.708
X249.404 Y53.521 Z0.694
X249.542 Y53.891 Z0.68
X249.666 Y54.267 Z0.666
X249.775 Y54.647 Z0.652
X249.869 Y55.032 Z0.638
X249.949 Y55.419 Z0.624
X250.013 Y55.81 Z0.61
X250.061 Y56.202 Z0.596
X250.095 Y56.596 Z0.583
X250.112 Y56.992 Z0.569
X250.115 Y57.387 Z0.555
X250.102 Y57.782 Z0.541
X250.074 Y58.177 Z0.527
X250.03 Y58.57 Z0.513
X249.971 Y58.961 Z0.499
X249.897 Y59.35 Z0.485
X249.807 Y59.735 Z0.472
X249.703 Y60.117 Z0.458
X249.584 Y60.494 Z0.444
X249.45 Y60.866 Z0.43
X249.302 Y61.233 Z0.416
X249.14 Y61.593 Z0.402
X248.964 Y61.946 Z0.388
X248.775 Y62.292 Z0.374
X248.572 Y62.631 Z0.36
X248.356 Y62.961 Z0.347
X248.127 Y63.283 Z0.333
X247.886 Y63.595 Z0.319
X247.633 Y63.898 Z0.305
X247.368 Y64.191 Z0.291
X247.092 Y64.473 Z0.277
X246.806 Y64.744 Z0.263
X246.509 Y65.004 Z0.249
X246.202 Y65.252 Z0.236
X245.885 Y65.488 Z0.222
X245.56 Y65.711 Z0.208
X245.226 Y65.922 Z0.194
X244.885 Y66.119 Z0.18
X244.535 Y66.303 Z0.166
X244.179 Y66.473 Z0.152
X243.817 Y66.629 Z0.138
X243.448 Y66.771 Z0.124
X243.075 Y66.898 Z0.111
X242.697 Y67.011 Z0.097
X242.314 Y67.108 Z0.083
X241.929 Y67.191 Z0.069
X241.54 Y67.259 Z0.055
X241.149 Y67.311 Z0.041
X240.756 Y67.348 Z0.027
X240.362 Y67.37 Z0.013
X239.967 Y67.377 Z0
X239.573 Y67.368 Z-0.014
X239.179 Y67.343 Z-0.028
X238.786 Y67.304 Z-0.042
X238.395 Y67.249 Z-0.056
X238.007 Y67.178 Z-0.07
X237.622 Y67.093 Z-0.084
X237.24 Y66.993 Z-0.098
X236.863 Y66.878 Z-0.112
X236.49 Y66.748 Z-0.125
X236.123 Y66.604 Z-0.139
X235.761 Y66.446 Z-0.153
X235.406 Y66.273 Z-0.167
X235.058 Y66.087 Z-0.181
X234.718 Y65.888 Z-0.195
X234.385 Y65.675 Z-0.209
X234.061 Y65.45 Z-0.223
X233.747 Y65.212 Z-0.236
X233.441 Y64.962 Z-0.25
X233.146 Y64.7 Z-0.264
X232.861 Y64.427 Z-0.278
X232.587 Y64.143 Z-0.292
X232.32 Y63.843 Z-0.306
X232.065 Y63.533 Z-0.32
X231.822 Y63.213 Z-0.334
X231.592 Y62.884 Z-0.349
X231.376 Y62.546 Z-0.363
X231.173 Y62.199 Z-0.377
X230.984 Y61.845 Z-0.391
X230.81 Y61.483 Z-0.405
X230.65 Y61.115 Z-0.419
X230.505 Y60.74 Z-0.434
X230.375 Y60.361 Z-0.448
X230.26 Y59.976 Z-0.462
X230.16 Y59.587 Z-0.476
X230.076 Y59.194 Z-0.49
X230.008 Y58.799 Z-0.504
X229.955 Y58.401 Z-0.519
X229.918 Y58.001 Z-0.533
X229.898 Y57.6 Z-0.547
X229.893 Y57.198 Z-0.561
X229.904 Y56.797 Z-0.575
X229.931 Y56.396 Z-0.589
X229.974 Y55.997 Z-0.604
X230.033 Y55.6 Z-0.618
X230.108 Y55.205 Z-0.632
X230.198 Y54.814 Z-0.646
X230.304 Y54.427 Z-0.66
X230.426 Y54.044 Z-0.674
X230.562 Y53.666 Z-0.688
X230.713 Y53.294 Z-0.703
X230.879 Y52.929 Z-0.717
X231.059 Y52.57 Z-0.731
X231.254 Y52.219 Z-0.745
X231.462 Y51.875 Z-0.759
X231.684 Y51.541 Z-0.773
X231.919 Y51.215 Z-0.788
X232.166 Y50.899 Z-0.802
X232.427 Y50.593 Z-0.816
X232.699 Y50.298 Z-0.83
X232.982 Y50.013 Z-0.844
X233.277 Y49.741 Z-0.858
X233.582 Y49.48 Z-0.873
X233.898 Y49.231 Z-0.887
X234.223 Y48.996 Z-0.901
X234.557 Y48.773 Z-0.915
X234.9 Y48.564 Z-0.929
X235.25 Y48.369 Z-0.943
X235.609 Y48.187 Z-0.958
X235.974 Y48.021 Z-0.972
X236.346 Y47.868 Z-0.986
X236.723 Y47.731 Z-1
X237.104 Y47.609 Z-1.014
X237.491 Y47.503 Z-1.028
X237.881 Y47.412 Z-1.042
X238.274 Y47.336 Z-1.057
X238.67 Y47.276 Z-1.071
X239.068 Y47.232 Z-1.085
X239.468 Y47.204 Z-1.099
X239.868 Y47.192 Z-1.113
X240.269 Y47.196 Z-1.127
X240.669 Y47.216 Z-1.142
X241.068 Y47.251 Z-1.156
X241.465 Y47.303 Z-1.17
X241.86 Y47.37 Z-1.184
X242.252 Y47.453 Z-1.198
X242.64 Y47.551 Z-1.212
X243.024 Y47.665 Z-1.227
X243.403 Y47.794 Z-1.241
X243.777 Y47.938 Z-1.255
X244.145 Y48.097 Z-1.269
X244.506 Y48.27 Z-1.283
X244.86 Y48.457 Z-1.297
X245.206 Y48.659 Z-1.312
X245.544 Y48.874 Z-1.326
X245.873 Y49.102 Z-1.34
X246.193 Y49.343 Z-1.354
X246.503 Y49.597 Z-1.368
X246.803 Y49.863 Z-1.382
X247.091 Y50.14 Z-1.396
X247.369 Y50.429 Z-1.411
X247.635 Y50.729 Z-1.425
X247.888 Y51.039 Z-1.439
X248.129 Y51.359 Z-1.453
X248.358 Y51.688 Z-1.467
X248.573 Y52.026 Z-1.481
X248.774 Y52.372 Z-1.496
X248.961 Y52.726 Z-1.51
X249.134 Y53.087 Z-1.524
X249.293 Y53.455 Z-1.538
X249.437 Y53.829 Z-1.552
X249.566 Y54.208 Z-1.566
X249.679 Y54.592 Z-1.581
X249.778 Y54.98 Z-1.595
X249.86 Y55.372 Z-1.609
X249.928 Y55.767 Z-1.623
X249.979 Y56.164 Z-1.637
X250.014 Y56.563 Z-1.651
X250.034 Y56.964 Z-1.666
X250.038 Y57.364 Z-1.68
X250.026 Y57.764 Z-1.694
X249.997 Y58.164 Z-1.708
X249.953 Y58.561 Z-1.722
X249.894 Y58.956 Z-1.736
X249.818 Y59.349 Z-1.75
X249.727 Y59.738 Z-1.765
X249.621 Y60.123 Z-1.779
X249.499 Y60.503 Z-1.793
X249.363 Y60.879 Z-1.807
X249.211 Y61.249 Z-1.821
X249.045 Y61.612 Z-1.835
X248.865 Y61.969 Z-1.85
X248.67 Y62.318 Z-1.864
X248.462 Y62.659 Z-1.878
X248.241 Y62.991 Z-1.892
X248.006 Y63.315 Z-1.906
X247.759 Y63.628 Z-1.92
X247.499 Y63.932 Z-1.935
X247.228 Y64.225 Z-1.949
X246.945 Y64.507 Z-1.963
X246.651 Y64.778 Z-1.977
X246.346 Y65.037 Z-1.991
X246.032 Y65.283 Z-2.005
X245.708 Y65.517 Z-2.02
X245.374 Y65.738 Z-2.034
X245.033 Y65.945 Z-2.048
X244.683 Y66.138 Z-2.062
X244.326 Y66.318 Z-2.076
X243.962 Y66.483 Z-2.09
X243.592 Y66.633 Z-2.104
X243.216 Y66.769 Z-2.119
X242.835 Y66.889 Z-2.133
X242.45 Y66.994 Z-2.147
X242.061 Y67.084 Z-2.161
X241.668 Y67.158 Z-2.175
X241.273 Y67.217 Z-2.189
X240.875 Y67.26 Z-2.204
X240.477 Y67.287 Z-2.218
X240.077 Y67.298 Z-2.232
X239.678 Y67.293 Z-2.246
X239.279 Y67.272 Z-2.26
X238.881 Y67.236 Z-2.274
X238.485 Y67.183 Z-2.289
X238.091 Y67.115 Z-2.303
X237.7 Y67.032 Z-2.317
X237.313 Y66.932 Z-2.331
X236.93 Y66.818 Z-2.345
X236.553 Y66.688 Z-2.359
X236.18 Y66.544 Z-2.374
X235.814 Y66.384 Z-2.388
X235.454 Y66.211 Z-2.402
X235.101 Y66.023 Z-2.416
X234.757 Y65.822 Z-2.43
X234.421 Y65.607 Z-2.444
X234.095 Y65.379 Z-2.458
X233.777 Y65.138 Z-2.473
X233.469 Y64.884 Z-2.487
X233.172 Y64.619 Z-2.501
X232.885 Y64.342 Z-2.515
X232.61 Y64.054 Z-2.529
X232.346 Y63.755 Z-2.543
X232.094 Y63.446 Z-2.558
X231.855 Y63.127 Z-2.572
X231.629 Y62.799 Z-2.586
X231.416 Y62.462 Z-2.6
X231.217 Y62.117 Z-2.614
X231.031 Y61.764 Z-2.628
X230.86 Y61.404 Z-2.643
X230.703 Y61.038 Z-2.657
X230.561 Y60.666 Z-2.671
X230.434 Y60.288 Z-2.685
X230.322 Y59.905 Z-2.699
X230.225 Y59.519 Z-2.713
X230.143 Y59.128 Z-2.728
X230.078 Y58.735 Z-2.742
X230.028 Y58.34 Z-2.756
X229.993 Y57.943 Z-2.77
X229.975 Y57.545 Z-2.784
X229.972 Y57.146 Z-2.798
X229.985 Y56.748 Z-2.812
X230.015 Y56.35 Z-2.827
X230.059 Y55.954 Z-2.841
X230.12 Y55.56 Z-2.855
X230.196 Y55.169 Z-2.869
X230.288 Y54.781 Z-2.883
X230.395 Y54.397 Z-2.897
X230.517 Y54.018 Z-2.912
X230.655 Y53.644 Z-2.926
X230.807 Y53.275 Z-2.94
X230.973 Y52.913 Z-2.954
X231.154 Y52.558 Z-2.968
X231.349 Y52.21 Z-2.982
X231.558 Y51.871 Z-2.997
X231.78 Y51.54 Z-3.011
X232.015 Y51.218 Z-3.025
X232.262 Y50.905 Z-3.039
X232.522 Y50.603 Z-3.053
X232.793 Y50.311 Z-3.067
X233.076 Y50.03 Z-3.082
X233.37 Y49.761 Z-3.096
X233.675 Y49.504 Z-3.11
X233.989 Y49.259 Z-3.124
X234.312 Y49.027 Z-3.138
X234.644 Y48.809 Z-3.152
X234.985 Y48.603 Z-3.166
X235.333 Y48.412 Z-3.181
X235.689 Y48.234 Z-3.195
X236.052 Y48.071 Z-3.209
X236.42 Y47.922 Z-3.223
X236.795 Y47.788 Z-3.237
X237.174 Y47.669 Z-3.251
X237.558 Y47.566 Z-3.266
X237.946 Y47.477 Z-3.28
X238.336 Y47.405 Z-3.294
X238.73 Y47.347 Z-3.308
X239.125 Y47.306 Z-3.322
X239.522 Y47.28 Z-3.336
X239.92 Y47.27 Z-3.351
X240.317 Y47.276 Z-3.365
X240.714 Y47.297 Z-3.379
X241.11 Y47.335 Z-3.393
X241.504 Y47.388 Z-3.407
X241.896 Y47.457 Z-3.421
X242.284 Y47.541 Z-3.436
X242.669 Y47.641 Z-3.45
X243.05 Y47.756 Z-3.464
X243.425 Y47.886 Z-3.478
X243.796 Y48.031 Z-3.492
X244.16 Y48.19 Z-3.506
X244.517 Y48.364 Z-3.52
X244.868 Y48.552 Z-3.535
X245.21 Y48.754 Z-3.549
X245.545 Y48.969 Z-3.563
X245.87 Y49.197 Z-3.577
X246.186 Y49.438 Z-3.591
X246.493 Y49.692 Z-3.605
X246.789 Y49.957 Z-3.62
X247.074 Y50.234 Z-3.634
X247.348 Y50.522 Z-3.648
X247.61 Y50.821 Z-3.662
X247.86 Y51.13 Z-3.676
X248.098 Y51.449 Z-3.69
X248.323 Y51.777 Z-3.705
X248.534 Y52.114 Z-3.719
X248.732 Y52.458 Z-3.733
X248.916 Y52.811 Z-3.747
X249.086 Y53.17 Z-3.761
X249.242 Y53.536 Z-3.775
X249.383 Y53.908 Z-3.79
X249.509 Y54.285 Z-3.804
X249.62 Y54.667 Z-3.818
X249.715 Y55.053 Z-3.832
X249.795 Y55.441 Z-3.846
X249.859 Y55.833 Z-3.86
X249.908 Y56.226 Z-3.874
X249.941 Y56.621 Z-3.889
X249.959 Y57.018 Z-3.903
X249.96 Y57.414 Z-3.917
X249.946 Y57.811 Z-3.931
X249.916 Y58.206 Z-3.945
X249.87 Y58.6 Z-3.959
X249.809 Y58.992 Z-3.974
X249.732 Y59.381 Z-3.988
X249.64 Y59.767 Z-4.002
X249.532 Y60.149 Z-4.016
X249.409 Y60.526 Z-4.03
X249.272 Y60.898 Z-4.044
X249.119 Y61.264 Z-4.059
X248.953 Y61.624 Z-4.073
X248.772 Y61.977 Z-4.087
X248.577 Y62.322 Z-4.101
X248.368 Y62.66 Z-4.115
X248.147 Y62.988 Z-4.129
X247.912 Y63.308 Z-4.144
X247.665 Y63.618 Z-4.158
X247.406 Y63.919 Z-4.172
X247.135 Y64.208 Z-4.186
X246.852 Y64.487 Z-4.2
X246.559 Y64.754 Z-4.214
X246.256 Y65.009 Z-4.228
X245.942 Y65.252 Z-4.243
X245.619 Y65.482 Z-4.257
X245.287 Y65.699 Z-4.271
X244.947 Y65.903 Z-4.285
X244.599 Y66.093 Z-4.299
X244.244 Y66.27 Z-4.313
X243.882 Y66.432 Z-4.328
X243.513 Y66.579 Z-4.342
X243.14 Y66.712 Z-4.356
X242.761 Y66.829 Z-4.37
X242.378 Y66.932 Z-4.384
X241.991 Y67.019 Z-4.398
X241.601 Y67.09 Z-4.413
X241.208 Y67.146 Z-4.427
X240.814 Y67.187 Z-4.441
X240.418 Y67.211 Z-4.455
X240.021 Y67.22 Z-4.469
X239.625 Y67.214 Z-4.483
X239.229 Y67.191 Z-4.498
X238.834 Y67.152 Z-4.512
X238.441 Y67.098 Z-4.526
X238.051 Y67.029 Z-4.54
X237.664 Y66.944 Z-4.554
X237.281 Y66.844 Z-4.568
X236.903 Y66.728 Z-4.582
X236.529 Y66.598 Z-4.597
X236.161 Y66.453 Z-4.611
X235.799 Y66.293 Z-4.625
X235.444 Y66.119 Z-4.639
X235.096 Y65.931 Z-4.653
X234.756 Y65.73 Z-4.667
X234.423 Y65.515 Z-4.682
X234.1 Y65.287 Z-4.696
X233.786 Y65.046 Z-4.71
X233.482 Y64.793 Z-4.724
X233.188 Y64.528 Z-4.738
X232.905 Y64.251 Z-4.752
X232.633 Y63.964 Z-4.767
X232.373 Y63.666 Z-4.781
X232.125 Y63.358 Z-4.795
X231.889 Y63.04 Z-4.809
X231.667 Y62.713 Z-4.823
X231.457 Y62.378 Z-4.837
X231.261 Y62.034 Z-4.852
X231.079 Y61.683 Z-4.866
X230.91 Y61.325 Z-4.88
X230.757 Y60.96 Z-4.894
X230.617 Y60.59 Z-4.908
X230.493 Y60.214 Z-4.922
X230.384 Y59.834 Z-4.936
X230.29 Y59.45 Z-4.951
X230.211 Y59.062 Z-4.965
X230.148 Y58.671 Z-4.979
X230.1 Y58.279 Z-4.993
X230.068 Y57.884 Z-5.007
X230.052 Y57.489 Z-5.021
X230.052 Y57.093 Z-5.036
X230.067 Y56.698 Z-5.05
X230.098 Y56.304 Z-5.064
X230.144 Y55.911 Z-5.078
X230.207 Y55.52 Z-5.092
X230.284 Y55.132 Z-5.106
X230.378 Y54.748 Z-5.121
X230.486 Y54.367 Z-5.135
X230.609 Y53.991 Z-5.149
X230.748 Y53.621 Z-5.163
X230.9 Y53.256 Z-5.177
X231.068 Y52.897 Z-5.191
X231.249 Y52.546 Z-5.206
X231.444 Y52.201 Z-5.22
X231.653 Y51.865 Z-5.234
X231.875 Y51.538 Z-5.248
X232.109 Y51.22 Z-5.262
X232.356 Y50.912 Z-5.276
X232.615 Y50.614 Z-5.29
X232.885 Y50.327 Z-5.305
X233.167 Y50.051 Z-5.319
X233.46 Y49.786 Z-5.333
X233.762 Y49.532 Z-5.347
X234.075 Y49.291 Z-5.361
X234.397 Y49.063 Z-5.375
X234.728 Y48.848 Z-5.39
X235.067 Y48.646 Z-5.404
X235.413 Y48.458 Z-5.418
X235.767 Y48.283 Z-5.432
X236.128 Y48.123 Z-5.446
X236.495 Y47.977 Z-5.46
X236.867 Y47.847 Z-5.475
X237.244 Y47.731 Z-5.489
X237.626 Y47.63 Z-5.503
X238.011 Y47.544 Z-5.517
X238.4 Y47.474 Z-5.531
X238.79 Y47.419 Z-5.545
X239.183 Y47.38 Z-5.56
X239.577 Y47.356 Z-5.574
X239.972 Y47.348 Z-5.588
X240.366 Y47.356 Z-5.602
X240.76 Y47.38 Z-5.616
X241.153 Y47.419 Z-5.63
X241.544 Y47.474 Z-5.644
X241.932 Y47.544 Z-5.659
X242.317 Y47.63 Z-5.673
X242.699 Y47.731 Z-5.687
X243.076 Y47.847 Z-5.701
X243.448 Y47.978 Z-5.715
X243.815 Y48.124 Z-5.729
X244.176 Y48.284 Z-5.744
X244.53 Y48.458 Z-5.758
X244.876 Y48.647 Z-5.772
X245.215 Y48.849 Z-5.786
X245.546 Y49.064 Z-5.8
X245.868 Y49.293 Z-5.814
X246.181 Y49.534 Z-5.829
X246.483 Y49.787 Z-5.843
X246.776 Y50.052 Z-5.857
X247.057 Y50.328 Z-5.871
X247.328 Y50.616 Z-5.885
X247.586 Y50.914 Z-5.899
X247.833 Y51.222 Z-5.914
X248.067 Y51.539 Z-5.928
X248.289 Y51.866 Z-5.942
X248.497 Y52.201 Z-5.956
X248.691 Y52.544 Z-5.97
X248.872 Y52.894 Z-5.984
X249.038 Y53.25 Z-5.998
X249.19 Y53.614 Z-6.013
X249.328 Y53.982 Z-6.027
X249.45 Y54.356 Z-6.041
X249.558 Y54.735 Z-6.055
X249.651 Y55.118 Z-6.069
X249.728 Y55.504 Z-6.083
X249.79 Y55.892 Z-6.098
X249.836 Y56.283 Z-6.112
X249.867 Y56.676 Z-6.126
X249.882 Y57.069 Z-6.14
X249.881 Y57.463 Z-6.154
X249.865 Y57.856 Z-6.168
X249.833 Y58.249 Z-6.183
X249.786 Y58.639 Z-6.197
X249.723 Y59.028 Z-6.211
X249.644 Y59.414 Z-6.225
X249.551 Y59.796 Z-6.239
X249.442 Y60.174 Z-6.253
X249.318 Y60.548 Z-6.268
X249.18 Y60.917 Z-6.282
X249.027 Y61.279 Z-6.296
X248.859 Y61.636 Z-6.31
X248.678 Y61.985 Z-6.324
X248.483 Y62.327 Z-6.338
X248.274 Y62.661 Z-6.352
X248.052 Y62.986 Z-6.367
X247.818 Y63.302 Z-6.381
X247.571 Y63.609 Z-6.395
X247.312 Y63.905 Z-6.409
X247.041 Y64.191 Z-6.423
X246.76 Y64.466 Z-6.437
X246.467 Y64.73 Z-6.452
X246.164 Y64.982 Z-6.466
X245.852 Y65.221 Z-6.48
X245.53 Y65.448 Z-6.494
X245.2 Y65.662 Z-6.508
X244.861 Y65.862 Z-6.522
X244.515 Y66.049 Z-6.537
X244.161 Y66.222 Z-6.551
X243.801 Y66.381 Z-6.565
X243.434 Y66.525 Z-6.579
X243.063 Y66.655 Z-6.593
X242.686 Y66.77 Z-6.607
X242.305 Y66.869 Z-6.622
X241.921 Y66.954 Z-6.636
X241.533 Y67.023 Z-6.65
X241.143 Y67.076 Z-6.664
X240.752 Y67.114 Z-6.678
X240.36 Y67.137 Z-6.692
X239.968 Y67.143 Z-6.706
X239.575 Y67.135 Z-6.721
X239.183 Y67.11 Z-6.735
X238.793 Y67.07 Z-6.749
X238.404 Y67.014 Z-6.763
X238.018 Y66.943 Z-6.777
X237.635 Y66.857 Z-6.791
X237.255 Y66.756 Z-6.806
X236.88 Y66.639 Z-6.82
X236.51 Y66.508 Z-6.834
X236.146 Y66.362 Z-6.848
X235.787 Y66.201 Z-6.862
X235.435 Y66.027 Z-6.876
X235.091 Y65.839 Z-6.891
X234.754 Y65.637 Z-6.905
X234.426 Y65.422 Z-6.919
X234.106 Y65.193 Z-6.933
X233.796 Y64.953 Z-6.947
X233.495 Y64.7 Z-6.961
X233.205 Y64.436 Z-6.976
X232.925 Y64.16 Z-6.99
X232.657 Y63.873 Z-7.004
X232.4 Y63.576 Z-7.018
X232.156 Y63.269 Z-7.032
X231.924 Y62.952 Z-7.046
X231.704 Y62.626 Z-7.06
X231.498 Y62.292 Z-7.075
X231.305 Y61.95 Z-7.089
X231.126 Y61.601 Z-7.103
X230.961 Y61.244 Z-7.117
X230.81 Y60.882 Z-7.131
X230.674 Y60.513 Z-7.145
X230.553 Y60.14 Z-7.16
X230.446 Y59.762 Z-7.174
X230.355 Y59.38 Z-7.188
X230.279 Y58.995 Z-7.202
X230.218 Y58.607 Z-7.216
X230.173 Y58.217 Z-7.23
X230.143 Y57.825 Z-7.245
X230.129 Y57.433 Z-7.259
X230.131 Y57.04 Z-7.273
X230.148 Y56.648 Z-7.287
X230.181 Y56.257 Z-7.301
X230.229 Y55.867 Z-7.315
X230.293 Y55.479 Z-7.33
X230.372 Y55.095 Z-7.344
X230.467 Y54.714 Z-7.358
X230.576 Y54.337 Z-7.372
X230.7 Y53.965 Z-7.386
X230.839 Y53.599 Z-7.4
X230.992 Y53.238 Z-7.414
X231.16 Y52.884 Z-7.429
X231.341 Y52.537 Z-7.443
X231.536 Y52.197 Z-7.457
X231.745 Y51.866 Z-7.471
X231.966 Y51.543 Z-7.485
X232.201 Y51.229 Z-7.499
X232.447 Y50.924 Z-7.514
X232.706 Y50.63 Z-7.528
X232.976 Y50.346 Z-7.542
X233.257 Y50.073 Z-7.556
X233.548 Y49.812 Z-7.57
X233.85 Y49.562 Z-7.584
X234.161 Y49.325 Z-7.599
X234.482 Y49.1 Z-7.613
X234.812 Y48.888 Z-7.627
X235.149 Y48.689 Z-7.641
X235.494 Y48.504 Z-7.655
X235.847 Y48.333 Z-7.669
X236.206 Y48.176 Z-7.684
X236.57 Y48.033 Z-7.698
X236.941 Y47.905 Z-7.712
X237.316 Y47.792 Z-7.726
X237.695 Y47.694 Z-7.74
X238.078 Y47.611 Z-7.754
X238.463 Y47.543 Z-7.768
X238.852 Y47.491 Z-7.783
X239.241 Y47.454 Z-7.797
X239.633 Y47.433 Z-7.811
X240.024 Y47.427 Z-7.825
X240.416 Y47.437 Z-7.839
X240.807 Y47.463 Z-7.853
X241.196 Y47.504 Z-7.868
X241.584 Y47.56 Z-7.882
X241.969 Y47.632 Z-7.896
X242.351 Y47.719 Z-7.91
X242.729 Y47.821 Z-7.924
X243.103 Y47.939 Z-7.938
X243.471 Y48.071 Z-7.953
X243.835 Y48.217 Z-7.967
X244.192 Y48.378 Z-7.981
X244.542 Y48.553 Z-7.995
X244.885 Y48.742 Z-8.009
X245.221 Y48.944 Z-8.023
X245.548 Y49.159 Z-8.038
X245.866 Y49.388 Z-8.052
X246.175 Y49.629 Z-8.066
X246.474 Y49.882 Z-8.08
X246.762 Y50.145 Z-8.094
X247.04 Y50.421 Z-8.108
X247.306 Y50.707 Z-8.122
X247.561 Y51.003 Z-8.137
X247.803 Y51.309 Z-8.151
X248.033 Y51.625 Z-8.165
X248.251 Y51.95 Z-8.179
X248.455 Y52.283 Z-8.193
X248.646 Y52.623 Z-8.207
X248.823 Y52.972 Z-8.222
X248.987 Y53.327 Z-8.236
X249.136 Y53.688 Z-8.25
X249.27 Y54.055 Z-8.264
X249.39 Y54.427 Z-8.278
X249.495 Y54.803 Z-8.292
X249.585 Y55.183 Z-8.307
X249.66 Y55.567 Z-8.321
X249.719 Y55.953 Z-8.335
X249.763 Y56.341 Z-8.349
X249.791 Y56.731 Z-8.363
X249.804 Y57.121 Z-8.377
X249.802 Y57.512 Z-8.392
X249.783 Y57.902 Z-8.406
X249.75 Y58.292 Z-8.42
X249.701 Y58.679 Z-8.434
X249.636 Y59.064 Z-8.448
X249.556 Y59.447 Z-8.462
X249.461 Y59.826 Z-8.476
X249.351 Y60.201 Z-8.491
X249.226 Y60.571 Z-8.505
X249.087 Y60.936 Z-8.519
X248.933 Y61.295 Z-8.533
X248.765 Y61.648 Z-8.547
X248.583 Y61.994 Z-8.561
X248.388 Y62.332 Z-8.576
X248.179 Y62.662 Z-8.59
X247.957 Y62.984 Z-8.604
X247.723 Y63.296 Z-8.618
X247.476 Y63.599 Z-8.632
X247.217 Y63.892 Z-8.646
X246.947 Y64.175 Z-8.661
X246.666 Y64.446 Z-8.675
X246.375 Y64.706 Z-8.689
X246.073 Y64.955 Z-8.703
X245.762 Y65.191 Z-8.717
X245.441 Y65.414 Z-8.731
X245.112 Y65.625 Z-8.746
X244.775 Y65.822 Z-8.76
X244.43 Y66.006 Z-8.774
X244.078 Y66.175 Z-8.788
X243.721 Y66.331 Z-8.802
X243.357 Y66.472 Z-8.816
X242.989 Y66.598 Z-8.83
X242.615 Y66.71 Z-8.845
X242.238 Y66.806 Z-8.859
X241.857 Y66.888 Z-8.873
X241.473 Y66.954 Z-8.887
X241.086 Y67.005 Z-8.901
X240.698 Y67.041 Z-8.915
X240.309 Y67.061 Z-8.93
X239.919 Y67.066 Z-8.944
X239.53 Y67.055 Z-8.958
X239.141 Y67.028 Z-8.972
X238.753 Y66.987 Z-8.986
X238.368 Y66.929 Z-9
X237.985 Y66.857 Z-9.015
X237.605 Y66.769 Z-9.029
X237.229 Y66.666 Z-9.043
X236.858 Y66.549 Z-9.057
X236.491 Y66.416 Z-9.071
X236.13 Y66.27 Z-9.085
X235.775 Y66.109 Z-9.1
X235.427 Y65.934 Z-9.114
X235.086 Y65.745 Z-9.128
X234.753 Y65.543 Z-9.142
X234.428 Y65.327 Z-9.156
X234.112 Y65.099 Z-9.17
X233.805 Y64.859 Z-9.184
X233.508 Y64.607 Z-9.199
X233.221 Y64.343 Z-9.213
X232.945 Y64.067 Z-9.227
X232.681 Y63.781 Z-9.241
X232.427 Y63.485 Z-9.255
X232.186 Y63.179 Z-9.269
X231.957 Y62.863 Z-9.284
X231.741 Y62.539 Z-9.298
X231.538 Y62.206 Z-9.312
X231.349 Y61.866 Z-9.326
X231.173 Y61.518 Z-9.34
X231.011 Y61.164 Z-9.354
X230.863 Y60.803 Z-9.369
X230.73 Y60.437 Z-9.383
X230.612 Y60.065 Z-9.397
X230.508 Y59.69 Z-9.411
X230.419 Y59.31 Z-9.425
X230.346 Y58.927 Z-9.439
X230.288 Y58.542 Z-9.454
X230.245 Y58.155 Z-9.468
X230.217 Y57.766 Z-9.482
X230.206 Y57.376 Z-9.496
X230.209 Y56.988 Z-9.51
X230.228 Y56.599 Z-9.524
X230.263 Y56.212 Z-9.538
X230.313 Y55.827 Z-9.553
X230.378 Y55.443 Z-9.567
X230.458 Y55.063 Z-9.581
X230.554 Y54.686 Z-9.595
X230.664 Y54.313 Z-9.609
X230.79 Y53.945 Z-9.623
X230.929 Y53.583 Z-9.638
X231.083 Y53.226 Z-9.652
X231.251 Y52.875 Z-9.666
X231.433 Y52.532 Z-9.68
X231.629 Y52.196 Z-9.694
X231.837 Y51.868 Z-9.708
X232.059 Y51.548 Z-9.723
X232.293 Y51.238 Z-9.737
X232.539 Y50.937 Z-9.751
X232.797 Y50.646 Z-9.765
X233.067 Y50.366 Z-9.779
X233.347 Y50.096 Z-9.793
X233.638 Y49.839 Z-9.808
X233.939 Y49.592 Z-9.822
X234.249 Y49.358 Z-9.836
X234.568 Y49.137 Z-9.85
X234.897 Y48.928 Z-9.864
X235.233 Y48.733 Z-9.878
X235.576 Y48.551 Z-9.892
X235.927 Y48.383 Z-9.907
X236.284 Y48.229 Z-9.921
X236.647 Y48.089 Z-9.935
X237.015 Y47.964 Z-9.949
X237.387 Y47.854 Z-9.963
X237.764 Y47.758 Z-9.977
X238.145 Y47.678 Z-9.992
X238.528 Y47.613 Z-10.006
X238.913 Y47.563 Z-10.02
X239.301 Y47.529 Z-10.034
X239.689 Y47.509 Z-10.048
X240.078 Y47.506 Z-10.062
X240.466 Y47.518 Z-10.077
X240.854 Y47.545 Z-10.091
X241.24 Y47.588 Z-10.105
X241.625 Y47.646 Z-10.119
X242.006 Y47.719 Z-10.133
X242.385 Y47.808 Z-10.147
X242.76 Y47.911 Z-10.162
X243.13 Y48.03 Z-10.176
X243.495 Y48.162 Z-10.19
X243.855 Y48.31 Z-10.204
X244.208 Y48.471 Z-10.218
X244.554 Y48.646 Z-10.232
X244.893 Y48.835 Z-10.246
X245.224 Y49.037 Z-10.261
X245.546 Y49.252 Z-10.275
X245.86 Y49.479 Z-10.289
X246.165 Y49.719 Z-10.303
X246.459 Y49.971 Z-10.317
X246.744 Y50.235 Z-10.331
X247.018 Y50.509 Z-10.346
X247.28 Y50.795 Z-10.36
X247.532 Y51.09 Z-10.374
X247.771 Y51.395 Z-10.388
X247.997 Y51.71 Z-10.402
X248.212 Y52.033 Z-10.416
X248.413 Y52.365 Z-10.431
X248.6 Y52.704 Z-10.445
X248.775 Y53.051 Z-10.459
X248.935 Y53.404 Z-10.473
X249.081 Y53.763 Z-10.487
X249.212 Y54.128 Z-10.501
X249.329 Y54.497 Z-10.516
X249.431 Y54.871 Z-10.53
X249.519 Y55.249 Z-10.544
X249.591 Y55.63 Z-10.558
X249.648 Y56.014 Z-10.572
X249.689 Y56.399 Z-10.586
X249.715 Y56.786 Z-10.6
X249.726 Y57.174 Z-10.615
X249.721 Y57.562 Z-10.629
X249.701 Y57.949 Z-10.643
X249.666 Y58.335 Z-10.657
X249.615 Y58.719 Z-10.671
X249.549 Y59.102 Z-10.685
X249.468 Y59.481 Z-10.7
X249.371 Y59.856 Z-10.714
X249.26 Y60.228 Z-10.728
X249.135 Y60.595 Z-10.742
X248.994 Y60.956 Z-10.756
X248.84 Y61.312 Z-10.77
X248.671 Y61.661 Z-10.785
X248.489 Y62.003 Z-10.799
X248.293 Y62.338 Z-10.813
X248.084 Y62.664 Z-10.827
X247.862 Y62.983 Z-10.841
X247.628 Y63.291 Z-10.855
X247.381 Y63.591 Z-10.87
X247.123 Y63.88 Z-10.884
X246.854 Y64.159 Z-10.898
X246.573 Y64.427 Z-10.912
X246.283 Y64.683 Z-10.926
X245.983 Y64.927 Z-10.94
X245.674 Y65.159 Z-10.954
X245.356 Y65.379 Z-10.969
X245.029 Y65.585 Z-10.983
X244.694 Y65.779 Z-10.997
X244.351 Y65.959 Z-11.011
X244.002 Y66.125 Z-11.025
X243.647 Y66.277 Z-11.039
X243.285 Y66.415 Z-11.054
X242.919 Y66.539 Z-11.068
X242.548 Y66.648 Z-11.082
X242.172 Y66.742 Z-11.096
X241.794 Y66.821 Z-11.11
X241.412 Y66.884 Z-11.124
X241.029 Y66.933 Z-11.139
X240.643 Y66.966 Z-11.153
X240.257 Y66.984 Z-11.167
X239.87 Y66.987 Z-11.181
X239.483 Y66.974 Z-11.195
X239.098 Y66.946 Z-11.209
X238.713 Y66.902 Z-11.224
X238.331 Y66.843 Z-11.238
X237.951 Y66.769 Z-11.252
X237.575 Y66.68 Z-11.266
X237.203 Y66.576 Z-11.28
X236.834 Y66.458 Z-11.294
X236.471 Y66.325 Z-11.308
X236.114 Y66.177 Z-11.323
X235.762 Y66.015 Z-11.337
X235.418 Y65.84 Z-11.351
X235.08 Y65.651 Z-11.365
X234.751 Y65.448 Z-11.379
X234.429 Y65.233 Z-11.393
X234.117 Y65.005 Z-11.408
X233.814 Y64.765 Z-11.422
X233.52 Y64.513 Z-11.436
X233.237 Y64.249 Z-11.45
X232.965 Y63.975 Z-11.464
X232.704 Y63.689 Z-11.478
X232.454 Y63.394 Z-11.493
X232.216 Y63.089 Z-11.507
X231.991 Y62.775 Z-11.521
X231.778 Y62.451 Z-11.535
X231.578 Y62.12 Z-11.549
X231.392 Y61.781 Z-11.563
X231.219 Y61.435 Z-11.578
X231.061 Y61.083 Z-11.592
X230.916 Y60.724 Z-11.606
X230.786 Y60.36 Z-11.62
X230.668 Y59.984 Z-11.634
X230.566 Y59.604 Z-11.649
X230.479 Y59.22 Z-11.663
X230.408 Y58.833 Z-11.678
X230.353 Y58.443 Z-11.692
X230.313 Y58.051 Z-11.707
X230.29 Y57.658 Z-11.721
X230.282 Y57.265 Z-11.736
X230.291 Y56.871 Z-11.75
X230.315 Y56.478 Z-11.764
X230.356 Y56.087 Z-11.779
X230.412 Y55.697 Z-11.793
X230.484 Y55.31 Z-11.808
X230.572 Y54.926 Z-11.822
X230.675 Y54.546 Z-11.837
X230.793 Y54.171 Z-11.851
X230.927 Y53.8 Z-11.866
X231.076 Y53.436 Z-11.88
X231.239 Y53.078 Z-11.895
X231.417 Y52.726 Z-11.909
X231.608 Y52.383 Z-11.923
X231.814 Y52.047 Z-11.938
X232.033 Y51.72 Z-11.952
X232.265 Y51.402 Z-11.967
X232.51 Y51.094 Z-11.981
X232.767 Y50.796 Z-11.996
X233.036 Y50.508 Z-12.01
X233.317 Y50.232 Z-12.025
X233.609 Y49.968 Z-12.039
X233.911 Y49.715 Z-12.053
X234.223 Y49.475 Z-12.068
X234.544 Y49.248 Z-12.082
X234.875 Y49.034 Z-12.097
X235.213 Y48.834 Z-12.111
X235.56 Y48.647 Z-12.126
X235.914 Y48.475 Z-12.14
X236.275 Y48.317 Z-12.155
X236.642 Y48.174 Z-12.169
X237.014 Y48.047 Z-12.184
X237.391 Y47.934 Z-12.198
X237.773 Y47.837 Z-12.212
X238.158 Y47.755 Z-12.227
X238.546 Y47.689 Z-12.241
X238.936 Y47.639 Z-12.256
X239.329 Y47.605 Z-12.27
X239.722 Y47.586 Z-12.285
X240.115 Y47.584 Z-12.299
X240.509 Y47.597 Z-12.314
X240.901 Y47.627 Z-12.328
X241.292 Y47.673 Z-12.342
X241.679 Y47.734 Z-12.357
X242.064 Y47.811 Z-12.371
X242.446 Y47.903 Z-12.386
X242.824 Y48.011 Z-12.4
X243.196 Y48.134 Z-12.415
X243.564 Y48.272 Z-12.429
X243.926 Y48.425 Z-12.444
X244.281 Y48.593 Z-12.458
X244.629 Y48.775 Z-12.472
X244.969 Y48.97 Z-12.487
X245.301 Y49.18 Z-12.501
X245.625 Y49.403 Z-12.516
X245.939 Y49.638 Z-12.53
X246.243 Y49.887 Z-12.545
X246.537 Y50.147 Z-12.559
X246.82 Y50.419 Z-12.574
X247.092 Y50.703 Z-12.588
X247.352 Y50.997 Z-12.603
X247.6 Y51.301 Z-12.617
X247.835 Y51.616 Z-12.631
X248.057 Y51.939 Z-12.646
X248.266 Y52.272 Z-12.66
X248.462 Y52.612 Z-12.675
X248.643 Y52.961 Z-12.689
X248.81 Y53.316 Z-12.704
X248.963 Y53.678 Z-12.718
X249.101 Y54.045 Z-12.733
X249.223 Y54.418 Z-12.747
X249.331 Y54.796 Z-12.761
X249.423 Y55.178 Z-12.776
X249.499 Y55.563 Z-12.79
X249.56 Y55.951 Z-12.805
X249.605 Y56.341 Z-12.819
X249.634 Y56.733 Z-12.834
X249.647 Y57.125 Z-12.848
X249.644 Y57.518 Z-12.863
X249.625 Y57.91 Z-12.877
X249.591 Y58.301 Z-12.892
X249.54 Y58.691 Z-12.906
X249.474 Y59.078 Z-12.92
X249.392 Y59.462 Z-12.935
X249.295 Y59.842 Z-12.949
X249.182 Y60.218 Z-12.964
X249.054 Y60.589 Z-12.978
X248.911 Y60.955 Z-12.993
X248.753 Y61.315 Z-13.007
X248.581 Y61.668 Z-13.022
X248.395 Y62.013 Z-13.036
X248.195 Y62.35 Z-13.05
X247.982 Y62.679 Z-13.065
X247.755 Y62.998 Z-13.079
X247.516 Y63.308 Z-13.094
X247.264 Y63.608 Z-13.108
X247.001 Y63.898 Z-13.123
X246.726 Y64.177 Z-13.137
X246.44 Y64.444 Z-13.152
X246.143 Y64.7 Z-13.166
X245.836 Y64.943 Z-13.18
X245.519 Y65.174 Z-13.195
X245.193 Y65.391 Z-13.209
X244.859 Y65.595 Z-13.224
X244.517 Y65.786 Z-13.238
X244.167 Y65.962 Z-13.253
X243.811 Y66.124 Z-13.267
X243.448 Y66.272 Z-13.282
X243.079 Y66.404 Z-13.296
X242.706 Y66.522 Z-13.311
X242.328 Y66.624 Z-13.325
X241.946 Y66.711 Z-13.339
X241.56 Y66.782 Z-13.354
X241.173 Y66.837 Z-13.368
X240.783 Y66.877 Z-13.383
X240.392 Y66.901 Z-13.397
X240.001 Y66.909 Z-13.412
X239.609 Y66.901 Z-13.426
X239.218 Y66.877 Z-13.441
X238.828 Y66.837 Z-13.455
X238.441 Y66.782 Z-13.469
X238.056 Y66.711 Z-13.484
X237.674 Y66.624 Z-13.498
X237.295 Y66.522 Z-13.513
X236.922 Y66.404 Z-13.527
X236.553 Y66.272 Z-13.542
X236.19 Y66.125 Z-13.556
X235.834 Y65.963 Z-13.571
X235.484 Y65.786 Z-13.585
X235.142 Y65.596 Z-13.6
X234.808 Y65.392 Z-13.614
X234.482 Y65.174 Z-13.628
X234.165 Y64.944 Z-13.643
X233.858 Y64.7 Z-13.657
X233.561 Y64.445 Z-13.672
X233.275 Y64.178 Z-13.686
X233 Y63.899 Z-13.701
X232.736 Y63.609 Z-13.715
X232.485 Y63.309 Z-13.73
X232.246 Y62.999 Z-13.744
X232.02 Y62.68 Z-13.758
X231.807 Y62.352 Z-13.773
X231.608 Y62.016 Z-13.787
X231.422 Y61.673 Z-13.802
X231.251 Y61.321 Z-13.816
X231.094 Y60.964 Z-13.831
X230.952 Y60.6 Z-13.845
X230.824 Y60.231 Z-13.86
X230.712 Y59.856 Z-13.874
X230.615 Y59.478 Z-13.888
X230.534 Y59.096 Z-13.903
X230.468 Y58.711 Z-13.917
X230.417 Y58.323 Z-13.932
X230.383 Y57.934 Z-13.946
X230.364 Y57.544 Z-13.961
X230.361 Y57.153 Z-13.975
X230.374 Y56.763 Z-13.99
X230.403 Y56.373 Z-14.004
X230.448 Y55.985 Z-14.019
X230.508 Y55.599 Z-14.033
X230.584 Y55.216 Z-14.047
X230.676 Y54.836 Z-14.062
X230.783 Y54.461 Z-14.076
X230.905 Y54.089 Z-14.091
X231.042 Y53.724 Z-14.105
X231.193 Y53.364 Z-14.12
X231.359 Y53.01 Z-14.134
X231.54 Y52.664 Z-14.149
X231.734 Y52.325 Z-14.163
X231.942 Y51.994 Z-14.177
X232.163 Y51.672 Z-14.192
X232.398 Y51.359 Z-14.206
X232.644 Y51.056 Z-14.221
X232.903 Y50.764 Z-14.235
X233.173 Y50.482 Z-14.25
X233.455 Y50.211 Z-14.264
X233.747 Y49.952 Z-14.279
X234.05 Y49.705 Z-14.293
X234.362 Y49.47 Z-14.308
X234.684 Y49.248 Z-14.322
X235.014 Y49.04 Z-14.336
X235.353 Y48.845 Z-14.351
X235.699 Y48.664 Z-14.365
X236.053 Y48.498 Z-14.38
X236.412 Y48.345 Z-14.394
X236.778 Y48.208 Z-14.409
X237.149 Y48.085 Z-14.423
X237.525 Y47.978 Z-14.438
X237.904 Y47.886 Z-14.452
X238.286 Y47.81 Z-14.466
X238.671 Y47.749 Z-14.481
X239.058 Y47.704 Z-14.495
X239.447 Y47.674 Z-14.51
X239.836 Y47.661 Z-14.524
X240.226 Y47.663 Z-14.539
X240.615 Y47.681 Z-14.553
X241.003 Y47.715 Z-14.568
X241.39 Y47.765 Z-14.582
X241.774 Y47.83 Z-14.596
X242.155 Y47.911 Z-14.611
X242.533 Y48.007 Z-14.625
X242.906 Y48.118 Z-14.64
X243.275 Y48.245 Z-14.654
X243.638 Y48.386 Z-14.669
X243.995 Y48.542 Z-14.683
X244.345 Y48.713 Z-14.698
X244.688 Y48.897 Z-14.712
X245.024 Y49.096 Z-14.727
X245.351 Y49.307 Z-14.741
X245.669 Y49.532 Z-14.755
X245.978 Y49.77 Z-14.77
X246.277 Y50.02 Z-14.784
X246.566 Y50.281 Z-14.799
X246.843 Y50.555 Z-14.813
X247.11 Y50.839 Z-14.828
X247.364 Y51.134 Z-14.842
X247.607 Y51.439 Z-14.857
X247.837 Y51.754 Z-14.871
X248.053 Y52.078 Z-14.885
X248.257 Y52.41 Z-14.9
X248.447 Y52.75 Z-14.914
X248.623 Y53.098 Z-14.929
X248.784 Y53.452 Z-14.943
X248.932 Y53.813 Z-14.958
X249.064 Y54.18 Z-14.972
X249.181 Y54.551 Z-14.987
X249.283 Y54.927 Z-15.001
X249.37 Y55.307 Z-15.016
X249.442 Y55.69 Z-15.03
X249.497 Y56.076 Z-15.044
X249.537 Y56.464 Z-15.059
X249.562 Y56.852 Z-15.073
X249.57 Y57.242 Z-15.088
X249.563 Y57.632 Z-15.102
X249.539 Y58.021 Z-15.117
X249.501 Y58.408 Z-15.131
X249.446 Y58.794 Z-15.146
X249.376 Y59.177 Z-15.16
X249.29 Y59.556 Z-15.174
X249.189 Y59.932 Z-15.189
X249.073 Y60.303 Z-15.203
X248.942 Y60.669 Z-15.218
X248.796 Y61.029 Z-15.232
X248.636 Y61.383 Z-15.247
X248.461 Y61.73 Z-15.261
X248.273 Y62.07 Z-15.276
X248.071 Y62.402 Z-15.29
X247.855 Y62.726 Z-15.304
X247.627 Y63.04 Z-15.319
X247.386 Y63.345 Z-15.333
X247.133 Y63.64 Z-15.348
X246.868 Y63.924 Z-15.362
X246.592 Y64.198 Z-15.377
X246.305 Y64.46 Z-15.391
X246.007 Y64.71 Z-15.406
X245.7 Y64.947 Z-15.42
X245.383 Y65.173 Z-15.435
X245.057 Y65.385 Z-15.449
X244.723 Y65.583 Z-15.463
X244.381 Y65.768 Z-15.478
X244.032 Y65.939 Z-15.492
X243.676 Y66.096 Z-15.507
X243.315 Y66.238 Z-15.521
X242.947 Y66.365 Z-15.536
X242.575 Y66.477 Z-15.55
X242.199 Y66.574 Z-15.565
X241.819 Y66.656 Z-15.579
X241.436 Y66.722 Z-15.593
X241.051 Y66.772 Z-15.608
X240.664 Y66.807 Z-15.622
X240.275 Y66.826 Z-15.637
X239.887 Y66.83 Z-15.651
X239.498 Y66.817 Z-15.666
X239.111 Y66.789 Z-15.68
X238.724 Y66.745 Z-15.695
X238.34 Y66.685 Z-15.709
X237.959 Y66.61 Z-15.724
X237.581 Y66.52 Z-15.738
X237.207 Y66.414 Z-15.752
X236.838 Y66.293 Z-15.767
X236.474 Y66.157 Z-15.781
X236.115 Y66.007 Z-15.796
X235.763 Y65.842 Z-15.81
X235.418 Y65.663 Z-15.825
X235.081 Y65.47 Z-15.839
X234.752 Y65.263 Z-15.854
X234.431 Y65.044 Z-15.868
X234.12 Y64.812 Z-15.882
X233.819 Y64.568 Z-15.897
X233.529 Y64.311 Z-15.911
X233.248 Y64.043 Z-15.926
X232.979 Y63.764 Z-15.94
X232.722 Y63.475 Z-15.955
X232.476 Y63.175 Z-15.969
X232.243 Y62.865 Z-15.984
X232.023 Y62.546 Z-15.998
X231.816 Y62.218 Z-16.012
X231.622 Y61.883 Z-16.027
X231.442 Y61.539 Z-16.041
X231.276 Y61.189 Z-16.056
X231.124 Y60.832 Z-16.07
X230.988 Y60.469 Z-16.085
X230.866 Y60.101 Z-16.099
X230.758 Y59.729 Z-16.114
X230.667 Y59.352 Z-16.128
X230.59 Y58.972 Z-16.143
X230.529 Y58.589 Z-16.157
X230.484 Y58.204 Z-16.171
X230.454 Y57.818 Z-16.186
X230.44 Y57.43 Z-16.2
X230.442 Y57.043 Z-16.215
X230.459 Y56.656 Z-16.229
X230.493 Y56.269 Z-16.244
X230.542 Y55.885 Z-16.258
X230.606 Y55.502 Z-16.273
X230.686 Y55.123 Z-16.287
X230.781 Y54.747 Z-16.301
X230.892 Y54.376 Z-16.316
X231.017 Y54.009 Z-16.33
X231.157 Y53.648 Z-16.345
X231.312 Y53.292 Z-16.359
X231.481 Y52.943 Z-16.374
X231.664 Y52.602 Z-16.388
X231.861 Y52.268 Z-16.403
X232.071 Y51.942 Z-16.417
X232.294 Y51.625 Z-16.432
X232.53 Y51.317 Z-16.446
X232.779 Y51.02 Z-16.46
X233.039 Y50.732 Z-16.475
X233.31 Y50.456 Z-16.489
X233.593 Y50.19 Z-16.504
X233.886 Y49.937 Z-16.518
X234.189 Y49.695 Z-16.533
X234.502 Y49.466 Z-16.547
X234.824 Y49.25 Z-16.562
X235.154 Y49.047 Z-16.576
X235.491 Y48.858 Z-16.59
X235.836 Y48.683 Z-16.605
X236.188 Y48.522 Z-16.619
X236.546 Y48.376 Z-16.634
X236.909 Y48.244 Z-16.648
X237.278 Y48.127 Z-16.663
X237.651 Y48.025 Z-16.677
X238.027 Y47.938 Z-16.692
X238.407 Y47.867 Z-16.706
X238.79 Y47.811 Z-16.72
X239.175 Y47.771 Z-16.735
X239.56 Y47.747 Z-16.749
X239.947 Y47.738 Z-16.764
X240.334 Y47.745 Z-16.778
X240.72 Y47.767 Z-16.793
X241.104 Y47.805 Z-16.807
X241.487 Y47.859 Z-16.822
X241.868 Y47.928 Z-16.836
X242.245 Y48.013 Z-16.851
X242.618 Y48.113 Z-16.865
X242.988 Y48.228 Z-16.879
X243.352 Y48.358 Z-16.894
X243.71 Y48.502 Z-16.908
X244.063 Y48.661 Z-16.923
X244.408 Y48.834 Z-16.937
X244.747 Y49.021 Z-16.952
X245.077 Y49.222 Z-16.966
X245.399 Y49.436 Z-16.981
X245.713 Y49.663 Z-16.995
X246.016 Y49.902 Z-17.009
X246.31 Y50.154 Z-17.024
X246.593 Y50.417 Z-17.038
X246.866 Y50.691 Z-17.053
X247.127 Y50.976 Z-17.067
X247.376 Y51.272 Z-17.082
X247.613 Y51.578 Z-17.096
X247.837 Y51.893 Z-17.111
X248.048 Y52.216 Z-17.125
X248.246 Y52.548 Z-17.14
X248.431 Y52.888 Z-17.154
X248.601 Y53.235 Z-17.168
X248.758 Y53.589 Z-17.183
X248.899 Y53.949 Z-17.197
X249.026 Y54.314 Z-17.212
X249.139 Y54.684 Z-17.226
X249.236 Y55.058 Z-17.241
X249.317 Y55.436 Z-17.255
X249.384 Y55.817 Z-17.27
X249.434 Y56.2 Z-17.284
X249.469 Y56.584 Z-17.298
X249.489 Y56.97 Z-17.313
X249.493 Y57.355 Z-17.327
X249.481 Y57.741 Z-17.342
X249.453 Y58.125 Z-17.356
X249.41 Y58.508 Z-17.371
X249.352 Y58.89 Z-17.385
X249.278 Y59.268 Z-17.4
X249.188 Y59.643 Z-17.414
X249.084 Y60.014 Z-17.428
X248.964 Y60.381 Z-17.443
X248.83 Y60.743 Z-17.457
X248.681 Y61.098 Z-17.472
X248.518 Y61.448 Z-17.486
X248.341 Y61.79 Z-17.501
X248.15 Y62.125 Z-17.515
X247.945 Y62.452 Z-17.53
X247.728 Y62.771 Z-17.544
X247.497 Y63.08 Z-17.559
X247.255 Y63.38 Z-17.573
X247 Y63.67 Z-17.587
X246.734 Y63.949 Z-17.602
X246.457 Y64.217 Z-17.616
X246.169 Y64.473 Z-17.631
X245.871 Y64.718 Z-17.645
X245.563 Y64.95 Z-17.66
X245.246 Y65.17 Z-17.674
X244.92 Y65.376 Z-17.689
X244.586 Y65.57 Z-17.703
X244.245 Y65.749 Z-17.717
X243.897 Y65.915 Z-17.732
X243.542 Y66.066 Z-17.746
X243.181 Y66.202 Z-17.761
X242.815 Y66.324 Z-17.775
X242.445 Y66.431 Z-17.79
X242.07 Y66.523 Z-17.804
X241.692 Y66.6 Z-17.819
X241.312 Y66.661 Z-17.833
X240.929 Y66.706 Z-17.848
X240.544 Y66.736 Z-17.862
X240.159 Y66.751 Z-17.876
X239.773 Y66.75 Z-17.891
X239.388 Y66.733 Z-17.905
X239.004 Y66.7 Z-17.92
X238.621 Y66.652 Z-17.934
X238.241 Y66.588 Z-17.949
X237.863 Y66.509 Z-17.963
X237.489 Y66.415 Z-17.978
X237.119 Y66.306 Z-17.992
X236.755 Y66.182 Z-18.006
X236.397 Y66.043 Z-18.021
X236.044 Y65.89 Z-18.035
X235.697 Y65.723 Z-18.05
X235.358 Y65.542 Z-18.064
X235.026 Y65.347 Z-18.079
X234.703 Y65.139 Z-18.093
X234.388 Y64.917 Z-18.108
X234.083 Y64.684 Z-18.122
X233.787 Y64.438 Z-18.136
X233.501 Y64.18 Z-18.151
X233.227 Y63.911 Z-18.165
X232.963 Y63.631 Z-18.18
X232.711 Y63.34 Z-18.194
X232.471 Y63.04 Z-18.209
X232.243 Y62.73 Z-18.223
X232.028 Y62.411 Z-18.238
X231.826 Y62.083 Z-18.252
X231.638 Y61.748 Z-18.267
X231.464 Y61.405 Z-18.281
X231.303 Y61.056 Z-18.295
X231.157 Y60.7 Z-18.31
X231.025 Y60.339 Z-18.324
X230.908 Y59.972 Z-18.339
X230.807 Y59.601 Z-18.353
X230.72 Y59.226 Z-18.368
X230.649 Y58.848 Z-18.382
X230.593 Y58.468 Z-18.397
X230.552 Y58.085 Z-18.411
X230.527 Y57.702 Z-18.425
X230.518 Y57.317 Z-18.44
X230.524 Y56.932 Z-18.454
X230.546 Y56.548 Z-18.469
X230.583 Y56.166 Z-18.483
X230.636 Y55.785 Z-18.498
X230.705 Y55.406 Z-18.512
X230.789 Y55.031 Z-18.527
X230.887 Y54.659 Z-18.541
X231.001 Y54.292 Z-18.556
X231.13 Y53.929 Z-18.57
X231.273 Y53.572 Z-18.584
X231.431 Y53.221 Z-18.599
X231.603 Y52.877 Z-18.613
X231.789 Y52.54 Z-18.628
X231.988 Y52.211 Z-18.642
X232.2 Y51.891 Z-18.657
X232.425 Y51.579 Z-18.671
X232.663 Y51.276 Z-18.686
X232.913 Y50.984 Z-18.7
X233.174 Y50.702 Z-18.714
X233.446 Y50.432 Z-18.729
X233.728 Y50.173 Z-18.743
X234.021 Y49.925 Z-18.758
X234.324 Y49.689 Z-18.772
X234.636 Y49.466 Z-18.787
X234.957 Y49.256 Z-18.801
X235.286 Y49.059 Z-18.816
X235.623 Y48.876 Z-18.83
X235.968 Y48.706 Z-18.844
X236.318 Y48.551 Z-18.859
X236.675 Y48.41 Z-18.873
X237.037 Y48.283 Z-18.888
X237.404 Y48.171 Z-18.902
X237.775 Y48.075 Z-18.917
X238.15 Y47.993 Z-18.931
X238.528 Y47.927 Z-18.946
X238.908 Y47.876 Z-18.96
X239.29 Y47.841 Z-18.975
X239.674 Y47.821 Z-18.989
X240.057 Y47.817 Z-19.003
X240.441 Y47.828 Z-19.018
X240.823 Y47.855 Z-19.032
X241.205 Y47.897 Z-19.047
X241.584 Y47.955 Z-19.061
X241.961 Y48.028 Z-19.076
X242.334 Y48.116 Z-19.09
X242.703 Y48.22 Z-19.105
X243.068 Y48.338 Z-19.119
X243.428 Y48.471 Z-19.133
X243.782 Y48.619 Z-19.148
X244.13 Y48.781 Z-19.162
X244.471 Y48.957 Z-19.177
X244.804 Y49.146 Z-19.191
X245.13 Y49.349 Z-19.206
X245.447 Y49.565 Z-19.22
X245.755 Y49.794 Z-19.235
X246.054 Y50.035 Z-19.249
X246.342 Y50.288 Z-19.264
X246.62 Y50.552 Z-19.278
X246.887 Y50.828 Z-19.292
X247.143 Y51.114 Z-19.307
X247.386 Y51.41 Z-19.321
X247.618 Y51.716 Z-19.336
X247.837 Y52.031 Z-19.35
X248.043 Y52.355 Z-19.365
X248.235 Y52.687 Z-19.379
X248.414 Y53.026 Z-19.394
X248.579 Y53.372 Z-19.408
X248.73 Y53.724 Z-19.422
X248.866 Y54.082 Z-19.437
X248.987 Y54.444 Z-19.451
X249.094 Y54.812 Z-19.466
X249.186 Y55.183 Z-19.48
X249.262 Y55.558 Z-19.495
X249.323 Y55.936 Z-19.509
X249.369 Y56.316 Z-19.524
X249.399 Y56.697 Z-19.538
X249.414 Y57.08 Z-19.552
X249.413 Y57.462 Z-19.567
X249.397 Y57.845 Z-19.581
X249.365 Y58.226 Z-19.596
X249.318 Y58.606 Z-19.61
X249.255 Y58.983 Z-19.625
X249.177 Y59.358 Z-19.639
X249.084 Y59.729 Z-19.654
X248.976 Y60.096 Z-19.668
X248.854 Y60.458 Z-19.683
X248.716 Y60.816 Z-19.697
X248.564 Y61.167 Z-19.711
X248.398 Y61.512 Z-19.726
X248.218 Y61.849 Z-19.74
X248.025 Y62.179 Z-19.755
X247.818 Y62.501 Z-19.769
X247.599 Y62.815 Z-19.784
X247.367 Y63.119 Z-19.798
X247.122 Y63.414 Z-19.813
X246.866 Y63.698 Z-19.827
X246.599 Y63.972 Z-19.841
X246.321 Y64.234 Z-19.856
X246.032 Y64.486 Z-19.87
X245.734 Y64.725 Z-19.885
X245.425 Y64.952 Z-19.899
X245.108 Y65.166 Z-19.914
X244.783 Y65.367 Z-19.928
X244.449 Y65.555 Z-19.943
X244.109 Y65.729 Z-19.957
X243.761 Y65.889 Z-19.972
X243.407 Y66.035 Z-19.986
X243.048 Y66.166 Z-20
X242.684 Y66.283 Z-20.015
X242.315 Y66.385 Z-20.029
X241.942 Y66.471 Z-20.044
X241.566 Y66.543 Z-20.058
X241.188 Y66.599 Z-20.073
X240.807 Y66.64 Z-20.087
X240.426 Y66.665 Z-20.102
X240.043 Y66.675 Z-20.116
X239.661 Y66.669 Z-20.13
X239.28 Y66.648 Z-20.145
X238.901 Y66.611 Z-20.159
X238.522 Y66.559 Z-20.174
X238.147 Y66.492 Z-20.188
X237.774 Y66.409 Z-20.203
X237.405 Y66.312 Z-20.217
X237.041 Y66.199 Z-20.232
X236.681 Y66.072 Z-20.246
X236.327 Y65.93 Z-20.26
X235.978 Y65.774 Z-20.275
X235.637 Y65.604 Z-20.289
X235.302 Y65.42 Z-20.304
X234.975 Y65.223 Z-20.318
X234.657 Y65.013 Z-20.333
X234.347 Y64.79 Z-20.347
X234.047 Y64.554 Z-20.362
X233.756 Y64.307 Z-20.376
X233.476 Y64.048 Z-20.391
X233.207 Y63.778 Z-20.405
X232.948 Y63.497 Z-20.419
X232.702 Y63.206 Z-20.434
X232.467 Y62.905 Z-20.448
X232.245 Y62.594 Z-20.463
X232.035 Y62.275 Z-20.477
X231.839 Y61.948 Z-20.492
X231.656 Y61.613 Z-20.506
X231.487 Y61.271 Z-20.521
X231.332 Y60.922 Z-20.535
X231.191 Y60.568 Z-20.549
X231.064 Y60.208 Z-20.564
X230.953 Y59.843 Z-20.578
X230.856 Y59.473 Z-20.593
X230.775 Y59.101 Z-20.607
X230.708 Y58.725 Z-20.622
X230.657 Y58.347 Z-20.636
X230.621 Y57.967 Z-20.651
X230.601 Y57.586 Z-20.665
X230.596 Y57.204 Z-20.68
X230.607 Y56.822 Z-20.694
X230.633 Y56.442 Z-20.708
X230.675 Y56.062 Z-20.723
X230.732 Y55.685 Z-20.737
X230.804 Y55.31 Z-20.752
X230.892 Y54.939 Z-20.766
X230.994 Y54.571 Z-20.781
X231.111 Y54.208 Z-20.795
X231.243 Y53.85 Z-20.81
X231.39 Y53.498 Z-20.824
X231.55 Y53.152 Z-20.838
X231.724 Y52.814 Z-20.853
X231.912 Y52.483 Z-20.867
X232.113 Y52.159 Z-20.882
X232.326 Y51.844 Z-20.896
X232.553 Y51.539 Z-20.911
X232.792 Y51.242 Z-20.925
X233.042 Y50.956 Z-20.94
X233.304 Y50.679 Z-20.954
X233.577 Y50.414 Z-20.968
X233.861 Y50.16 Z-20.983
X234.154 Y49.918 Z-20.997
X234.458 Y49.688 Z-21.012
X234.77 Y49.47 Z-21.026
X235.091 Y49.266 Z-21.041
X235.42 Y49.074 Z-21.055
X235.756 Y48.896 Z-21.07
X236.099 Y48.732 Z-21.084
X236.449 Y48.582 Z-21.099
X236.805 Y48.446 Z-21.113
X237.166 Y48.325 Z-21.127
X237.531 Y48.218 Z-21.142
X237.9 Y48.126 Z-21.156
X238.273 Y48.05 Z-21.171
X238.649 Y47.989 Z-21.185
X239.027 Y47.943 Z-21.2
X239.406 Y47.912 Z-21.214
X239.786 Y47.897 Z-21.229
X240.167 Y47.897 Z-21.243
X240.547 Y47.913 Z-21.257
X240.927 Y47.944 Z-21.272
X241.305 Y47.99 Z-21.286
X241.68 Y48.052 Z-21.301
X242.053 Y48.129 Z-21.315
X242.422 Y48.221 Z-21.33
X242.787 Y48.328 Z-21.344
X243.148 Y48.45 Z-21.359
X243.504 Y48.586 Z-21.373
X243.853 Y48.737 Z-21.388
X244.196 Y48.901 Z-21.402
X244.532 Y49.08 Z-21.416
X244.861 Y49.272 Z-21.431
X245.182 Y49.477 Z-21.445
X245.494 Y49.695 Z-21.46
X245.797 Y49.925 Z-21.474
X246.09 Y50.168 Z-21.489
X246.373 Y50.422 Z-21.503
X246.646 Y50.688 Z-21.518
X246.908 Y50.964 Z-21.532
X247.157 Y51.25 Z-21.546
X247.395 Y51.546 Z-21.561
X247.62 Y51.852 Z-21.575
X247.833 Y52.166 Z-21.59
X248.033 Y52.489 Z-21.604
X248.22 Y52.819 Z-21.619
X248.393 Y53.157 Z-21.633
X248.552 Y53.502 Z-21.648
X248.698 Y53.852 Z-21.662
X248.828 Y54.209 Z-21.676
X248.945 Y54.57 Z-21.691
X249.046 Y54.936 Z-21.705
X249.133 Y55.306 Z-21.72
X249.204 Y55.678 Z-21.734
X249.26 Y56.054 Z-21.749
X249.301 Y56.431 Z-21.763
X249.327 Y56.81 Z-21.778
X249.337 Y57.19 Z-21.792
X249.332 Y57.569 Z-21.807
X249.311 Y57.948 Z-21.821
X249.275 Y58.326 Z-21.835
X249.224 Y58.702 Z-21.85
X249.157 Y59.076 Z-21.864
X249.076 Y59.447 Z-21.879
X248.979 Y59.814 Z-21.893
X248.868 Y60.177 Z-21.908
X248.742 Y60.535 Z-21.922
X248.601 Y60.888 Z-21.937
X248.446 Y61.234 Z-21.951
X248.278 Y61.574 Z-21.965
X248.095 Y61.907 Z-21.98
X247.899 Y62.232 Z-21.994
X247.691 Y62.55 Z-22.009
X247.469 Y62.858 Z-22.023
X247.235 Y63.157 Z-22.038
X246.99 Y63.446 Z-22.052
X246.732 Y63.725 Z-22.067
X246.464 Y63.994 Z-22.081
X246.185 Y64.251 Z-22.096
X245.895 Y64.497 Z-22.11
X245.596 Y64.731 Z-22.124
X245.288 Y64.952 Z-22.139
X244.971 Y65.161 Z-22.153
X244.646 Y65.357 Z-22.168
X244.313 Y65.539 Z-22.182
X243.973 Y65.708 Z-22.197
X243.626 Y65.863 Z-22.211
X243.273 Y66.003 Z-22.226
X242.915 Y66.129 Z-22.24
X242.553 Y66.241 Z-22.254
X242.187 Y66.337 Z-22.269
X241.818 Y66.418 Z-22.283
X241.445 Y66.485 Z-22.298
X241.07 Y66.536 Z-22.312
X240.693 Y66.572 Z-22.327
X240.315 Y66.592 Z-22.341
X239.936 Y66.598 Z-22.356
X239.558 Y66.588 Z-22.37
X239.18 Y66.562 Z-22.384
X238.803 Y66.521 Z-22.399
X238.429 Y66.465 Z-22.413
X238.057 Y66.394 Z-22.428
X237.688 Y66.308 Z-22.442
X237.324 Y66.206 Z-22.457
X236.963 Y66.091 Z-22.471
X236.608 Y65.96 Z-22.486
X236.258 Y65.815 Z-22.5
X235.914 Y65.656 Z-22.515
X235.577 Y65.484 Z-22.529
X235.248 Y65.298 Z-22.543
X234.926 Y65.098 Z-22.558
X234.612 Y64.886 Z-22.572
X234.308 Y64.661 Z-22.587
X234.012 Y64.424 Z-22.601
X233.727 Y64.175 Z-22.616
X233.452 Y63.915 Z-22.63
X233.188 Y63.643 Z-22.645
X232.935 Y63.362 Z-22.659
X232.694 Y63.07 Z-22.673
X232.464 Y62.769 Z-22.688
X232.247 Y62.458 Z-22.702
X232.043 Y62.139 Z-22.717
X231.852 Y61.812 Z-22.731
X231.675 Y61.478 Z-22.746
X231.511 Y61.137 Z-22.76
X231.361 Y60.789 Z-22.775
X231.226 Y60.435 Z-22.789
X231.105 Y60.077 Z-22.804
X230.998 Y59.713 Z-22.818
X230.907 Y59.346 Z-22.832
X230.83 Y58.975 Z-22.847
X230.768 Y58.602 Z-22.861
X230.722 Y58.226 Z-22.876
X230.691 Y57.848 Z-22.89
X230.676 Y57.47 Z-22.905
X230.675 Y57.091 Z-22.919
X230.69 Y56.713 Z-22.934
X230.721 Y56.336 Z-22.948
X230.768 Y55.953 Z-22.963
X230.83 Y55.573 Z-22.977
X230.908 Y55.195 Z-22.992
X231.002 Y54.821 Z-23.007
X231.112 Y54.452 Z-23.022
X231.236 Y54.087 Z-23.036
X231.376 Y53.728 Z-23.051
X231.53 Y53.374 Z-23.066
X231.699 Y53.028 Z-23.081
X231.882 Y52.688 Z-23.095
X232.079 Y52.357 Z-23.11
X232.289 Y52.034 Z-23.125
X232.513 Y51.72 Z-23.14
X232.749 Y51.416 Z-23.155
X232.998 Y51.121 Z-23.169
X233.259 Y50.838 Z-23.184
X233.532 Y50.565 Z-23.199
X233.815 Y50.304 Z-23.214
X234.109 Y50.055 Z-23.228
X234.413 Y49.818 Z-23.243
X234.727 Y49.594 Z-23.258
X235.05 Y49.383 Z-23.273
X235.381 Y49.186 Z-23.287
X235.72 Y49.002 Z-23.302
X236.067 Y48.833 Z-23.317
X236.42 Y48.679 Z-23.332
X236.779 Y48.539 Z-23.346
X237.144 Y48.414 Z-23.361
X237.513 Y48.304 Z-23.376
X237.887 Y48.21 Z-23.391
X238.264 Y48.131 Z-23.405
X238.645 Y48.069 Z-23.42
X239.027 Y48.021 Z-23.435
X239.412 Y47.99 Z-23.45
X239.797 Y47.975 Z-23.464
X240.182 Y47.976 Z-23.479
X240.567 Y47.992 Z-23.494
X240.951 Y48.025 Z-23.509
X241.334 Y48.074 Z-23.523
X241.714 Y48.138 Z-23.538
X242.091 Y48.218 Z-23.553
X242.465 Y48.314 Z-23.568
X242.834 Y48.425 Z-23.582
X243.198 Y48.551 Z-23.597
X243.557 Y48.692 Z-23.612
X243.909 Y48.848 Z-23.627
X244.255 Y49.018 Z-23.641
X244.593 Y49.203 Z-23.656
X244.923 Y49.401 Z-23.671
X245.244 Y49.612 Z-23.686
X245.556 Y49.837 Z-23.7
X245.859 Y50.074 Z-23.715
X246.151 Y50.324 Z-23.73
X246.433 Y50.585 Z-23.745
X246.704 Y50.858 Z-23.759
X246.963 Y51.142 Z-23.774
X247.21 Y51.437 Z-23.789
X247.445 Y51.741 Z-23.804
X247.667 Y52.055 Z-23.818
X247.875 Y52.378 Z-23.833
X248.071 Y52.709 Z-23.848
X248.252 Y53.048 Z-23.863
X248.419 Y53.394 Z-23.877
X248.571 Y53.747 Z-23.892
X248.709 Y54.106 Z-23.907
X248.832 Y54.471 Z-23.922
X248.94 Y54.84 Z-23.936
X249.032 Y55.213 Z-23.951
X249.109 Y55.59 Z-23.966
X249.17 Y55.969 Z-23.981
X249.215 Y56.351 Z-23.995
X249.244 Y56.734 Z-24.01
X249.258 Y57.119 Z-24.025
X249.255 Y57.503 Z-24.04
X249.237 Y57.887 Z-24.054
X249.202 Y58.27 Z-24.069
X249.152 Y58.651 Z-24.084
X249.086 Y59.03 Z-24.099
X249.005 Y59.406 Z-24.113
X248.908 Y59.778 Z-24.128
X248.795 Y60.145 Z-24.143
X248.668 Y60.508 Z-24.158
X248.525 Y60.865 Z-24.172
X248.368 Y61.216 Z-24.187
X248.197 Y61.56 Z-24.202
X248.011 Y61.897 Z-24.217
X247.811 Y62.225 Z-24.231
X247.599 Y62.545 Z-24.246
X247.373 Y62.856 Z-24.261
X247.134 Y63.158 Z-24.276
X246.883 Y63.449 Z-24.29
X246.62 Y63.73 Z-24.305
X246.346 Y63.999 Z-24.32
X246.061 Y64.257 Z-24.335
X245.765 Y64.503 Z-24.349
X245.459 Y64.736 Z-24.364
X245.145 Y64.956 Z-24.379
X244.822 Y65.163 Z-24.394
X244.491 Y65.356 Z-24.408
X244.152 Y65.535 Z-24.423
X243.806 Y65.7 Z-24.438
X243.453 Y65.851 Z-24.453
X243.095 Y65.986 Z-24.467
X242.731 Y66.107 Z-24.482
X242.362 Y66.213 Z-24.497
X241.99 Y66.303 Z-24.512
X241.613 Y66.378 Z-24.526
X241.235 Y66.437 Z-24.541
X240.854 Y66.48 Z-24.556
X240.471 Y66.508 Z-24.571
X240.088 Y66.519 Z-24.585
X239.705 Y66.515 Z-24.6
X239.322 Y66.495 Z-24.615
X238.94 Y66.459 Z-24.63
X238.56 Y66.407 Z-24.644
X238.183 Y66.34 Z-24.659
X237.808 Y66.257 Z-24.674
X237.438 Y66.158 Z-24.689
X237.071 Y66.044 Z-24.703
X236.71 Y65.915 Z-24.718
X236.355 Y65.772 Z-24.733
X236.006 Y65.613 Z-24.748
X235.663 Y65.441 Z-24.762
X235.328 Y65.254 Z-24.777
X235.002 Y65.053 Z-24.792
X234.683 Y64.84 Z-24.807
X234.374 Y64.613 Z-24.821
X234.075 Y64.373 Z-24.836
X233.785 Y64.122 Z-24.851
X233.507 Y63.858 Z-24.866
X233.239 Y63.583 Z-24.88
X232.983 Y63.298 Z-24.895
X232.74 Y63.002 Z-24.91
X232.508 Y62.696 Z-24.925
X232.29 Y62.381 Z-24.939
X232.085 Y62.057 Z-24.954
X231.893 Y61.725 Z-24.969
X231.715 Y61.385 Z-24.984
X231.552 Y61.038 Z-24.998
X231.403 Y60.685 Z-25.013
X231.269 Y60.326 Z-25.028
X231.15 Y59.961 Z-25.043
X231.046 Y59.592 Z-25.057
X230.957 Y59.219 Z-25.072
X230.885 Y58.844 Z-25.087
X230.827 Y58.465 Z-25.102
X230.786 Y58.085 Z-25.116
X230.76 Y57.704 Z-25.131
X230.751 Y57.321 Z-25.146
X230.757 Y56.939 Z-25.161
X230.778 Y56.557 Z-25.175
X230.816 Y56.177 Z-25.19
X230.87 Y55.798 Z-25.205
X230.939 Y55.422 Z-25.22
X231.023 Y55.049 Z-25.234
X231.123 Y54.68 Z-25.249
X231.238 Y54.315 Z-25.264
X231.369 Y53.956 Z-25.279
X231.514 Y53.602 Z-25.293
X231.673 Y53.254 Z-25.308
X231.847 Y52.914 Z-25.323
X232.035 Y52.58 Z-25.337
X232.236 Y52.255 Z-25.352
X232.451 Y51.939 Z-25.367
X232.679 Y51.632 Z-25.382
X232.919 Y51.334 Z-25.396
X233.171 Y51.047 Z-25.411
X233.435 Y50.77 Z-25.426
X233.71 Y50.505 Z-25.441
X233.996 Y50.251 Z-25.455
X234.293 Y50.009 Z-25.47
X234.599 Y49.78 Z-25.485
X234.914 Y49.563 Z-25.5
X235.238 Y49.36 Z-25.514
X235.57 Y49.171 Z-25.529
X235.91 Y48.995 Z-25.544
X236.257 Y48.834 Z-25.559
X236.61 Y48.687 Z-25.573
X236.969 Y48.555 Z-25.588
X237.333 Y48.438 Z-25.603
X237.701 Y48.336 Z-25.618
X238.074 Y48.249 Z-25.632
X238.449 Y48.178 Z-25.647
X238.828 Y48.123 Z-25.662
X239.208 Y48.083 Z-25.677
X239.59 Y48.059 Z-25.691
X239.972 Y48.051 Z-25.706
X240.354 Y48.059 Z-25.721
X240.736 Y48.083 Z-25.736
X241.117 Y48.122 Z-25.75
X241.495 Y48.177 Z-25.765
X241.871 Y48.248 Z-25.78
X242.242 Y48.334 Z-25.795
X242.61 Y48.436 Z-25.809
X242.973 Y48.552 Z-25.824
X243.331 Y48.684 Z-25.839
X243.683 Y48.83 Z-25.854
X244.029 Y48.991 Z-25.868
X244.368 Y49.166 Z-25.883
X244.699 Y49.354 Z-25.898
X245.023 Y49.557 Z-25.913
X245.337 Y49.772 Z-25.927
X245.643 Y50.001 Z-25.942
X245.938 Y50.242 Z-25.957
X246.224 Y50.495 Z-25.972
X246.498 Y50.759 Z-25.986
X246.762 Y51.035 Z-26.001
X247.014 Y51.321 Z-26.016
X247.254 Y51.618 Z-26.031
X247.481 Y51.924 Z-26.045
X247.695 Y52.24 Z-26.06
X247.896 Y52.564 Z-26.075
X248.084 Y52.896 Z-26.09
X248.257 Y53.236 Z-26.104
X248.417 Y53.582 Z-26.119
X248.561 Y53.935 Z-26.134
X248.691 Y54.294 Z-26.149
X248.807 Y54.657 Z-26.163
X248.907 Y55.025 Z-26.178
X248.991 Y55.397 Z-26.193
X249.06 Y55.772 Z-26.208
X249.114 Y56.15 Z-26.222
X249.152 Y56.529 Z-26.237
X249.174 Y56.91 Z-26.252
X249.18 Y57.291 Z-26.267
X249.17 Y57.673 Z-26.281
X249.145 Y58.053 Z-26.296
X249.104 Y58.432 Z-26.311
X249.047 Y58.809 Z-26.326
X248.975 Y59.184 Z-26.34
X248.887 Y59.555 Z-26.355
X248.784 Y59.922 Z-26.37
X248.666 Y60.285 Z-26.385
X248.532 Y60.642 Z-26.399
X248.384 Y60.994 Z-26.414
X248.222 Y61.339 Z-26.429
X248.046 Y61.677 Z-26.444
X247.855 Y62.007 Z-26.458
X247.651 Y62.33 Z-26.473
X247.434 Y62.643 Z-26.488
X247.205 Y62.947 Z-26.503
X246.963 Y63.241 Z-26.517
X246.71 Y63.524 Z-26.532
X246.445 Y63.797 Z-26.547
X246.168 Y64.058 Z-26.562
X245.882 Y64.308 Z-26.576
X245.585 Y64.546 Z-26.591
X245.278 Y64.771 Z-26.606
X244.963 Y64.983 Z-26.621
X244.638 Y65.182 Z-26.635
X244.306 Y65.368 Z-26.65
X243.967 Y65.539 Z-26.665
X243.621 Y65.697 Z-26.68
X243.268 Y65.84 Z-26.694
X242.91 Y65.968 Z-26.709
X242.547 Y66.081 Z-26.724
X242.179 Y66.179 Z-26.739
X241.808 Y66.261 Z-26.753
X241.434 Y66.329 Z-26.768
X241.057 Y66.38 Z-26.783
X240.678 Y66.416 Z-26.798
X240.298 Y66.436 Z-26.812
X239.918 Y66.441 Z-26.827
X239.538 Y66.43 Z-26.842
X239.158 Y66.402 Z-26.857
X238.78 Y66.36 Z-26.871
X238.404 Y66.301 Z-26.886
X238.031 Y66.227 Z-26.901
X237.662 Y66.138 Z-26.916
X237.296 Y66.034 Z-26.93
X236.935 Y65.914 Z-26.945
X236.579 Y65.78 Z-26.96
X236.229 Y65.63 Z-26.975
X235.886 Y65.467 Z-26.989
X235.549 Y65.289 Z-27.004
X235.221 Y65.098 Z-27.019
X234.9 Y64.893 Z-27.034
X234.588 Y64.675 Z-27.048
X234.286 Y64.445 Z-27.063
X233.993 Y64.202 Z-27.078
X233.711 Y63.947 Z-27.093
X233.439 Y63.68 Z-27.107
X233.179 Y63.403 Z-27.122
X232.931 Y63.115 Z-27.137
X232.694 Y62.817 Z-27.152
X232.471 Y62.509 Z-27.166
X232.26 Y62.193 Z-27.181
X232.062 Y61.868 Z-27.196
X231.879 Y61.536 Z-27.211
X231.709 Y61.196 Z-27.225
X231.554 Y60.85 Z-27.24
X231.413 Y60.498 Z-27.255
X231.287 Y60.14 Z-27.27
X231.176 Y59.777 Z-27.284
X231.08 Y59.41 Z-27.299
X230.999 Y59.04 Z-27.314
X230.934 Y58.666 Z-27.329
X230.884 Y58.29 Z-27.343
X230.85 Y57.912 Z-27.358
X230.832 Y57.533 Z-27.373
X230.829 Y57.154 Z-27.388
X230.842 Y56.775 Z-27.402
X230.871 Y56.397 Z-27.417
X230.915 Y56.02 Z-27.432
X230.975 Y55.645 Z-27.447
X231.051 Y55.273 Z-27.461
X231.141 Y54.905 Z-27.476
X231.247 Y54.541 Z-27.491
X231.368 Y54.181 Z-27.506
X231.504 Y53.827 Z-27.52
X231.654 Y53.479 Z-27.535
X231.819 Y53.137 Z-27.55
X231.998 Y52.802 Z-27.565
X232.19 Y52.475 Z-27.579
X232.396 Y52.157 Z-27.594
X232.615 Y51.847 Z-27.609
X232.846 Y51.546 Z-27.624
X233.09 Y51.256 Z-27.638
X233.345 Y50.975 Z-27.653
X233.612 Y50.706 Z-27.668
X233.89 Y50.448 Z-27.683
X234.179 Y50.201 Z-27.697
X234.477 Y49.967 Z-27.712
X234.785 Y49.745 Z-27.727
X235.101 Y49.536 Z-27.742
X235.426 Y49.341 Z-27.756
X235.759 Y49.159 Z-27.771
X236.099 Y48.991 Z-27.786
X236.446 Y48.837 Z-27.801
X236.799 Y48.698 Z-27.815
X237.158 Y48.574 Z-27.83
X237.521 Y48.464 Z-27.845
X237.888 Y48.37 Z-27.86
X238.259 Y48.291 Z-27.874
X238.633 Y48.227 Z-27.889
X239.009 Y48.179 Z-27.904
X239.386 Y48.147 Z-27.919
X239.764 Y48.131 Z-27.933
X240.143 Y48.13 Z-27.948
X240.521 Y48.144 Z-27.963
X240.898 Y48.175 Z-27.978
X241.273 Y48.221 Z-27.992
X241.647 Y48.282 Z-28.007
X242.017 Y48.359 Z-28.022
X242.384 Y48.451 Z-28.037
X242.747 Y48.559 Z-28.051
X243.105 Y48.681 Z-28.066
X243.457 Y48.818 Z-28.081
X243.804 Y48.97 Z-28.096
X244.144 Y49.135 Z-28.11
X244.477 Y49.315 Z-28.125
X244.802 Y49.509 Z-28.14
X245.119 Y49.715 Z-28.155
X245.427 Y49.935 Z-28.169
X245.726 Y50.167 Z-28.184
X246.014 Y50.411 Z-28.199
X246.293 Y50.668 Z-28.214
X246.56 Y50.935 Z-28.228
X246.817 Y51.213 Z-28.243
X247.061 Y51.502 Z-28.258
X247.293 Y51.801 Z-28.273
X247.513 Y52.109 Z-28.287
X247.72 Y52.425 Z-28.302
X247.913 Y52.751 Z-28.317
X248.093 Y53.083 Z-28.332
X248.259 Y53.423 Z-28.346
X248.411 Y53.77 Z-28.361
X248.548 Y54.123 Z-28.376
X248.67 Y54.481 Z-28.391
X248.778 Y54.843 Z-28.405
X248.87 Y55.21 Z-28.42
X248.947 Y55.581 Z-28.435
X249.009 Y55.954 Z-28.45
X249.055 Y56.329 Z-28.464
X249.085 Y56.706 Z-28.479
X249.1 Y57.084 Z-28.494
X249.1 Y57.463 Z-28.509
X249.083 Y57.841 Z-28.523
X249.051 Y58.218 Z-28.538
X249.003 Y58.593 Z-28.553
X248.94 Y58.966 Z-28.568
X248.861 Y59.336 Z-28.582
X248.767 Y59.702 Z-28.597
X248.658 Y60.065 Z-28.612
X248.535 Y60.421 Z-28.627
X248.396 Y60.772 Z-28.641
X248.244 Y61.117 Z-28.656
X248.077 Y61.456 Z-28.671
X247.896 Y61.787 Z-28.686
X247.702 Y62.11 Z-28.7
X247.494 Y62.425 Z-28.715
X247.274 Y62.731 Z-28.73
X247.041 Y63.028 Z-28.745
X246.795 Y63.315 Z-28.759
X246.539 Y63.591 Z-28.774
X246.271 Y63.857 Z-28.789
X245.992 Y64.111 Z-28.804
X245.703 Y64.354 Z-28.818
X245.404 Y64.584 Z-28.833
X245.096 Y64.802 Z-28.848
X244.779 Y65.007 Z-28.863
X244.454 Y65.198 Z-28.877
X244.121 Y65.376 Z-28.892
X243.781 Y65.54 Z-28.907
X243.435 Y65.689 Z-28.922
X243.083 Y65.824 Z-28.936
X242.725 Y65.945 Z-28.951
X242.363 Y66.05 Z-28.966
X241.997 Y66.141 Z-28.981
X241.627 Y66.216 Z-28.995
X241.254 Y66.276 Z-29.01
X240.88 Y66.32 Z-29.025
X240.503 Y66.349 Z-29.04
X240.126 Y66.362 Z-29.054
X239.749 Y66.359 Z-29.069
X239.372 Y66.341 Z-29.084
X238.996 Y66.307 Z-29.099
X238.622 Y66.258 Z-29.113
X238.251 Y66.193 Z-29.128
X237.882 Y66.113 Z-29.143
X237.517 Y66.017 Z-29.158
X237.156 Y65.907 Z-29.172
X236.8 Y65.782 Z-29.187
X236.45 Y65.642 Z-29.202
X236.106 Y65.487 Z-29.217
X235.768 Y65.319 Z-29.231
X235.438 Y65.137 Z-29.246
X235.115 Y64.941 Z-29.261
X234.801 Y64.732 Z-29.276
X234.496 Y64.51 Z-29.29
X234.2 Y64.276 Z-29.305
X233.915 Y64.029 Z-29.32
X233.64 Y63.772 Z-29.335
X233.376 Y63.503 Z-29.349
X233.124 Y63.224 Z-29.364
X232.884 Y62.935 Z-29.379
X232.655 Y62.636 Z-29.394
X232.44 Y62.327 Z-29.408
X232.237 Y62.01 Z-29.423
X232.048 Y61.685 Z-29.438
X231.872 Y61.353 Z-29.453
X231.71 Y61.013 Z-29.467
X231.562 Y60.667 Z-29.482
X231.429 Y60.315 Z-29.497
X231.311 Y59.958 Z-29.512
X231.207 Y59.596 Z-29.526
X231.119 Y59.23 Z-29.541
X231.046 Y58.861 Z-29.556
X230.988 Y58.489 Z-29.571
X230.945 Y58.115 Z-29.585
X230.918 Y57.74 Z-29.6
X230.907 Y57.364 Z-29.615
X230.911 Y56.988 Z-29.63
X230.931 Y56.612 Z-29.644
X230.967 Y56.237 Z-29.659
X231.018 Y55.865 Z-29.674
X231.084 Y55.494 Z-29.689
X231.166 Y55.127 Z-29.703
X231.263 Y54.763 Z-29.718
X231.374 Y54.404 Z-29.733
X231.501 Y54.05 Z-29.748
X231.642 Y53.701 Z-29.762
X231.798 Y53.358 Z-29.777
X231.967 Y53.022 Z-29.792
X232.151 Y52.694 Z-29.807
X232.347 Y52.373 Z-29.821
X232.557 Y52.061 Z-29.836
X232.78 Y51.758 Z-29.851
X233.015 Y51.464 Z-29.866
X233.262 Y51.18 Z-29.88
X233.521 Y50.907 Z-29.895
X233.79 Y50.644 Z-29.91
X234.071 Y50.393 Z-29.925
X234.361 Y50.154 Z-29.939
X234.661 Y49.927 Z-29.954
X234.971 Y49.713 Z-29.969
X235.289 Y49.512 Z-29.984
X235.615 Y49.324 Z-29.998
X235.948 Y49.15 Z-30.013
X236.289 Y48.989 Z-30.028
X236.634 Y48.844 Z-30.043
X236.986 Y48.713 Z-30.057
X237.343 Y48.596 Z-30.072
X237.704 Y48.495 Z-30.087
X238.069 Y48.408 Z-30.102
X238.437 Y48.337 Z-30.116
X238.808 Y48.281 Z-30.131
X239.182 Y48.24 Z-30.146
X239.556 Y48.215 Z-30.161
X239.931 Y48.206 Z-30.175
X240.306 Y48.212 Z-30.19
X240.681 Y48.233 Z-30.205
X241.054 Y48.27 Z-30.22
X241.426 Y48.323 Z-30.234
X241.795 Y48.391 Z-30.249
X242.161 Y48.474 Z-30.264
X242.523 Y48.572 Z-30.279
X242.881 Y48.685 Z-30.293
X243.234 Y48.813 Z-30.308
X243.581 Y48.956 Z-30.323
X243.922 Y49.112 Z-30.338
X244.256 Y49.283 Z-30.352
X244.583 Y49.467 Z-30.367
X244.902 Y49.665 Z-30.382
X245.212 Y49.876 Z-30.397
X245.514 Y50.099 Z-30.411
X245.805 Y50.335 Z-30.426
X246.087 Y50.583 Z-30.441
X246.359 Y50.842 Z-30.456
X246.619 Y51.112 Z-30.47
X246.868 Y51.393 Z-30.485
X247.105 Y51.684 Z-30.5
X247.33 Y51.984 Z-30.515
X247.542 Y52.294 Z-30.53
X247.742 Y52.612 Z-30.544
X247.927 Y52.937 Z-30.559
X248.1 Y53.271 Z-30.574
X248.258 Y53.611 Z-30.589
X248.402 Y53.958 Z-30.603
X248.531 Y54.31 Z-30.618
X248.646 Y54.667 Z-30.633
X248.746 Y55.029 Z-30.648
X248.831 Y55.394 Z-30.662
X248.901 Y55.763 Z-30.677
X248.955 Y56.134 Z-30.692
X248.994 Y56.508 Z-30.707
X249.017 Y56.882 Z-30.721
X249.025 Y57.257 Z-30.736
G3 X230.921 Y57.257 I-9.052 J0
X249.025 Y57.257 I9.052 J0
G1 X249.025 Y57.657 F1000
X249.062 Y58.054
X249.133 Y58.447
X249.24 Y58.832
X249.381 Y59.206
X249.729 Y59.925
X249.861 Y60.204
X249.982 Y60.524
X250.086 Y60.886
X250.168 Y61.288
X250.221 Y61.731
X250.24 Y62.211
X250.219 Y62.726
X250.153 Y63.272
X250.035 Y63.846
X249.863 Y64.442
X249.631 Y65.054
X249.336 Y65.677
X248.975 Y66.302
X248.547 Y66.924
X248.051 Y67.533
X247.498 Y68.11
X246.902 Y68.642
X246.268 Y69.127
X245.599 Y69.564
X244.901 Y69.952
X244.177 Y70.291
X243.432 Y70.579
X242.67 Y70.818
X241.894 Y71.005
X241.107 Y71.143
X240.313 Y71.23
X239.515 Y71.267
X238.716 Y71.255
X237.919 Y71.193
X237.128 Y71.084
X236.345 Y70.926
X235.572 Y70.723
X234.813 Y70.474
X234.07 Y70.181
X233.346 Y69.844
X232.642 Y69.466
X231.961 Y69.048
X231.306 Y68.591
X230.678 Y68.098
X230.079 Y67.569
X229.512 Y67.007
X228.977 Y66.413
X228.477 Y65.79
X228.014 Y65.139
X227.588 Y64.464
X227.2 Y63.765
X226.853 Y63.046
X226.547 Y62.308
X226.282 Y61.554
X226.061 Y60.786
X225.883 Y60.008
X225.748 Y59.22
X225.659 Y58.427
X225.613 Y57.629
X225.612 Y56.83
X225.656 Y56.033
X225.745 Y55.239
X225.877 Y54.451
X226.053 Y53.672
X226.273 Y52.904
X226.535 Y52.149
X226.838 Y51.41
X227.182 Y50.689
X227.566 Y49.988
X227.988 Y49.31
X228.447 Y48.656
X228.942 Y48.029
X229.471 Y47.431
X230.032 Y46.862
X230.624 Y46.326
X231.245 Y45.824
X231.893 Y45.356
X232.566 Y44.926
X233.262 Y44.533
X233.978 Y44.18
X234.713 Y43.867
X235.465 Y43.596
X236.23 Y43.367
X237.007 Y43.18
X237.793 Y43.037
X238.585 Y42.938
X239.382 Y42.882
X240.181 Y42.872
X240.979 Y42.905
X241.774 Y42.983
X242.564 Y43.105
X243.345 Y43.27
X244.116 Y43.479
X244.874 Y43.73
X245.618 Y44.023
X246.344 Y44.357
X247.05 Y44.73
X247.734 Y45.142
X248.395 Y45.591
X249.029 Y46.077
X249.636 Y46.597
X250.212 Y47.149
X250.758 Y47.733
X251.27 Y48.346
X251.747 Y48.987
X252.188 Y49.653
X252.605 Y50.334
X253.01 Y51.023
X253.401 Y51.72
X253.773 Y52.426
X254.126 Y53.143
X254.455 Y53.871
X254.758 Y54.61
X255.032 Y55.36
X255.276 Y56.121
X255.488 Y56.891
X255.664 Y57.671
X255.804 Y58.457
X255.907 Y59.249
X255.97 Y60.045
X255.994 Y60.844
X255.978 Y61.643
X255.921 Y62.439
X255.822 Y63.232
X255.684 Y64.019
X255.504 Y64.797
X255.284 Y65.565
X255.025 Y66.321
X254.727 Y67.062
X254.391 Y67.787
X254.019 Y68.493
X253.611 Y69.18
X253.168 Y69.845
X252.692 Y70.487
X252.185 Y71.104
X251.648 Y71.695
X251.082 Y72.259
X250.49 Y72.795
X249.871 Y73.301
X249.23 Y73.777
X248.567 Y74.222
X247.883 Y74.635
X247.18 Y75.015
X246.461 Y75.363
X245.726 Y75.676
X244.978 Y75.956
X244.218 Y76.201
X243.447 Y76.412
X242.668 Y76.588
X241.882 Y76.729
X241.09 Y76.836
X240.294 Y76.907
X239.496 Y76.943
X238.698 Y76.945
X237.899 Y76.912
X237.103 Y76.844
X236.311 Y76.743
X235.524 Y76.608
X234.743 Y76.44
X233.97 Y76.239
X233.206 Y76.006
X232.452 Y75.74
X231.71 Y75.444
X230.982 Y75.117
X230.267 Y74.76
X229.568 Y74.373
X228.885 Y73.958
X228.22 Y73.516
X227.574 Y73.047
X226.947 Y72.551
X226.341 Y72.03
X225.757 Y71.486
X225.195 Y70.917
X224.658 Y70.327
X224.144 Y69.715
X223.655 Y69.083
X223.193 Y68.432
X222.757 Y67.763
X222.348 Y67.076
X221.967 Y66.374
X221.615 Y65.657
X221.291 Y64.927
X220.997 Y64.184
X220.734 Y63.43
X220.5 Y62.666
X220.297 Y61.894
X220.125 Y61.113
X219.984 Y60.327
X219.875 Y59.536
X219.797 Y58.741
X219.784 Y58.517
X219.781 Y58.454
X219.78 Y58.391
X219.779 Y58.328
X219.779 Y57.267
X219.819 Y56.47
X219.857 Y55.672
X219.927 Y54.876
X220.029 Y54.084
X220.164 Y53.296
X220.33 Y52.515
X220.527 Y51.741
X220.755 Y50.975
X221.013 Y50.219
X221.302 Y49.474
X221.62 Y48.741
X221.967 Y48.022
X222.343 Y47.317
X222.746 Y46.627
X223.176 Y45.954
X223.633 Y45.299
X224.115 Y44.662
X224.623 Y44.045
X225.154 Y43.449
X225.709 Y42.874
X226.286 Y42.322
X226.884 Y41.793
X227.503 Y41.288
X228.142 Y40.807
X228.799 Y40.353
X229.473 Y39.925
X230.164 Y39.523
X230.87 Y39.149
X231.59 Y38.804
X232.324 Y38.488
X233.069 Y38.2
X233.825 Y37.942
X234.59 Y37.714
X235.365 Y37.517
X236.146 Y37.35
X236.933 Y37.214
X237.725 Y37.11
X238.52 Y37.036
X239.318 Y36.994
X240.117 Y36.984
X240.915 Y37.005
X241.713 Y37.057
X242.507 Y37.142
X243.297 Y37.257
X244.083 Y37.403
X244.862 Y37.58
X245.633 Y37.788
X246.396 Y38.026
X247.148 Y38.293
X247.89 Y38.591
X248.619 Y38.917
X249.335 Y39.271
X250.036 Y39.654
X250.721 Y40.064
X251.391 Y40.501
X252.042 Y40.963
X252.675 Y41.451
X253.289 Y41.961
X253.886 Y42.492
X254.465 Y43.042
X255.027 Y43.61
X255.571 Y44.195
X256.096 Y44.797
X256.603 Y45.414
X257.091 Y46.047
X257.56 Y46.694
X258.009 Y47.354
X258.438 Y48.028
X258.846 Y48.715
X259.233 Y49.413
X259.598 Y50.124
X259.94 Y50.846
X259.947 Y50.861
X260.092 Y51.264
X260.184 Y51.683
X260.221 Y52.11
X260.221 Y52.128
X260.221 Y64.691
X260.181 Y65.489
X260.106 Y66.284
X259.989 Y67.075
X259.829 Y67.857
X259.631 Y68.631
X259.395 Y69.394
X259.122 Y70.145
X258.814 Y70.882
X258.474 Y71.605
X258.101 Y72.312
X257.698 Y73.001
X257.266 Y73.673
X256.806 Y74.326
X256.319 Y74.96
X255.807 Y75.573
X255.271 Y76.165
X254.712 Y76.736
X254.132 Y77.285
X253.53 Y77.81
X252.909 Y78.313
X252.27 Y78.791
X251.613 Y79.246
X250.94 Y79.676
X250.251 Y80.081
X249.549 Y80.461
X248.833 Y80.816
X248.105 Y81.145
X247.366 Y81.448
X246.617 Y81.725
X245.858 Y81.976
X245.091 Y82.2
X244.317 Y82.398
X243.537 Y82.569
X242.751 Y82.713
X241.961 Y82.831
X241.168 Y82.922
X240.372 Y82.987
X239.574 Y83.025
X238.775 Y83.037
X237.976 Y83.022
X237.178 Y82.98
X236.382 Y82.913
X235.589 Y82.82
X234.799 Y82.701
X234.014 Y82.556
X233.233 Y82.386
X232.458 Y82.192
X231.69 Y81.972
X230.93 Y81.728
X230.177 Y81.46
X229.434 Y81.168
X228.7 Y80.852
X227.976 Y80.513
X227.264 Y80.152
X226.563 Y79.768
X225.875 Y79.363
X225.2 Y78.936
X224.538 Y78.488
X223.891 Y78.019
X223.259 Y77.531
X222.643 Y77.023
X222.042 Y76.496
X221.458 Y75.951
X220.891 Y75.388
X220.681 Y75.166
X220.367 Y74.778
X220.114 Y74.347
X219.929 Y73.883
X219.817 Y73.397
X219.779 Y72.898
X219.779 Y58.981
X219.779 Y58.195
X219.779 Y58.053
X219.779 Y57.267
X219.779 Y52.128
X219.791 Y51.557
X219.811 Y50.986
X219.85 Y50.414
X219.912 Y49.843
X219.995 Y49.272
X220.099 Y48.701
X220.226 Y48.13
X220.38 Y47.559
X220.559 Y46.988
X220.618 Y46.814
X220.756 Y46.417
X220.983 Y45.846
X221.236 Y45.275
X221.521 Y44.704
X221.76 Y44.267
X221.838 Y44.133
X222.182 Y43.562
X222.331 Y43.334
X222.57 Y42.99
X222.902 Y42.534
X222.99 Y42.419
X223.473 Y41.832
X223.978 Y41.277
X224.044 Y41.207
X224.55 Y40.706
X224.616 Y40.645
X225.188 Y40.135
X225.758 Y39.671
X225.904 Y39.564
X226.329 Y39.256
X226.714 Y38.993
X226.9 Y38.876
X227.471 Y38.537
X227.671 Y38.422
X228.043 Y38.226
X228.614 Y37.945
X228.829 Y37.851
X229.185 Y37.695
X229.756 Y37.474
X230.327 Y37.279
X230.898 Y37.105
X231.469 Y36.955
X232.041 Y36.832
X232.612 Y36.73
X232.763 Y36.709
X233.183 Y36.65
X233.754 Y36.591
X234.325 Y36.557
X234.896 Y36.539
X235.468 Y36.529
X244.035 Y36.529
X244.606 Y36.531
X245.177 Y36.539
X245.748 Y36.559
X246.319 Y36.6
X246.891 Y36.66
X247.253 Y36.709
X247.462 Y36.742
X248.033 Y36.846
X248.604 Y36.976
X249.175 Y37.125
X249.746 Y37.3
X250.318 Y37.5
X250.889 Y37.728
X251.175 Y37.851
X251.46 Y37.984
X252.031 Y38.263
X252.321 Y38.422
X252.602 Y38.577
X253.173 Y38.921
X253.286 Y38.993
X253.744 Y39.308
X254.104 Y39.564
X254.316 Y39.728
X254.823 Y40.135
X254.887 Y40.191
X255.458 Y40.702
X255.746 Y40.988
X256.036 Y41.277
X256.544 Y41.848
X256.6 Y41.914
X257.01 Y42.419
X257.171 Y42.636
X257.433 Y42.99
X257.742 Y43.455
X257.812 Y43.562
X258.164 Y44.133
X258.314 Y44.393
X258.479 Y44.704
X258.765 Y45.275
X258.885 Y45.541
X259.017 Y45.846
X259.24 Y46.417
X259.441 Y46.988
X259.456 Y47.031
X259.62 Y47.559
X259.774 Y48.13
X259.901 Y48.701
X260.005 Y49.272
X260.027 Y49.413
X260.088 Y49.843
X260.15 Y50.414
X260.189 Y50.986
X260.209 Y51.557
X260.064 Y52.26
X259.669 Y52.859
X259.08 Y53.27
X257.8 Y53.841
G2 X256.414 Y56.125 I1.114 J2.238
G1 X256.414 Y60.123
G2 X257.742 Y62.377 I2.5 J0.046
G1 X259.674 Y63.549
X259.974 Y63.959
X260.093 Y64.12
X260.221 Y64.691
X260.221 Y73.828
X260.186 Y74.529
X260.087 Y75.283
X259.92 Y76.064
X259.694 Y76.83
X259.414 Y77.579
X259.087 Y78.307
X258.717 Y79.015
X258.307 Y79.701
X257.862 Y80.364
X257.384 Y81.004
X256.876 Y81.621
X256.341 Y82.214
X255.78 Y82.782
X255.195 Y83.327
X254.589 Y83.847
X253.963 Y84.344
X253.319 Y84.816
X252.658 Y85.264
X251.981 Y85.688
X251.289 Y86.088
X250.584 Y86.465
X249.868 Y86.817
X249.14 Y87.146
X248.402 Y87.451
X247.654 Y87.733
X246.898 Y87.991
X246.135 Y88.226
X245.364 Y88.438
X244.588 Y88.627
X243.807 Y88.793
X243.021 Y88.936
X242.231 Y89.056
X241.438 Y89.154
X240.643 Y89.23
X239.846 Y89.283
X239.048 Y89.313
X238.249 Y89.322
X237.45 Y89.309
X236.652 Y89.274
X235.855 Y89.218
X235.06 Y89.14
X234.268 Y89.04
X233.478 Y88.92
X232.692 Y88.779
X231.909 Y88.618
X231.132 Y88.435
X230.359 Y88.233
X229.592 Y88.01
X228.83 Y87.768
X228.076 Y87.506
X227.328 Y87.224
X226.588 Y86.924
X225.856 Y86.604
X225.132 Y86.266
X224.417 Y85.91
X223.712 Y85.535
X223.016 Y85.143
X222.676 Y84.94
X222.306 Y84.682
X221.973 Y84.377
X221.686 Y84.029
X221.449 Y83.645
X221.392 Y83.537
X221.189 Y83.125
X221.118 Y82.966
X220.871 Y82.395
X220.662 Y81.824
X220.618 Y81.698
X220.476 Y81.252
X220.311 Y80.681
X220.167 Y80.11
X220.046 Y79.545
X219.953 Y78.968
X219.883 Y78.397
X219.831 Y77.826
X219.8 Y77.255
X219.785 Y76.684
X219.779 Y76.113
X219.779 Y73.257
X219.946 Y72.542
X220.37 Y71.943
X220.99 Y71.549
X221.713 Y71.419
X258.347 Y71.99
X259.051 Y72.137
X259.651 Y72.535
X260.06 Y73.127
X260.221 Y73.828
X260.221 Y76.113
X260.215 Y76.684
X260.2 Y77.255
X260.169 Y77.826
X260.117 Y78.397
X260.047 Y78.968
X259.955 Y79.539
X259.833 Y80.11
X259.689 Y80.681
X259.528 Y81.252
X259.456 Y81.473
X259.337 Y81.824
X259.128 Y82.395
X258.882 Y82.966
X258.608 Y83.537
X258.314 Y84.096
X258.307 Y84.108
X257.974 Y84.679
X257.742 Y85.049
X257.612 Y85.25
X257.209 Y85.821
X257.171 Y85.873
X256.767 Y86.392
X256.6 Y86.59
X256.27 Y86.963
X256.029 Y87.229
X255.458 Y87.798
X255.118 Y88.105
X254.887 Y88.309
X254.439 Y88.676
X254.316 Y88.772
X253.744 Y89.193
X253.666 Y89.247
X253.173 Y89.575
X252.775 Y89.819
X252.602 Y89.923
X252.031 Y90.235
X251.721 Y90.39
X251.46 Y90.516
X250.889 Y90.772
X250.426 Y90.961
X250.318 Y91
X249.746 Y91.2
X249.175 Y91.375
X248.575 Y91.532
X248.033 Y91.653
X247.462 Y91.758
X246.891 Y91.84
X246.319 Y91.9
X245.748 Y91.941
X245.177 Y91.961
X244.606 Y91.969
X244.035 Y91.971
X235.468 Y91.971
X234.896 Y91.961
X234.325 Y91.943
X233.754 Y91.909
X233.183 Y91.85
X232.612 Y91.77
X232.041 Y91.668
X231.469 Y91.545
X231.411 Y91.532
X230.898 Y91.396
X230.327 Y91.221
X229.756 Y91.025
X229.185 Y90.804
X228.614 Y90.555
X228.269 Y90.39
X228.043 Y90.274
X227.471 Y89.967
X227.221 Y89.819
X226.9 Y89.62
X226.334 Y89.247
X225.758 Y88.827
X225.561 Y88.676
X225.187 Y88.366
X224.882 Y88.105
X224.616 Y87.864
X224.276 Y87.534
X224.044 Y87.303
X223.732 Y86.963
X223.473 Y86.673
X223.239 Y86.392
X222.902 Y85.968
X222.791 Y85.821
X222.389 Y85.25
X222.331 Y85.166
X222.024 Y84.679
X221.76 Y84.227
X221.693 Y84.108
X221.449 Y83.645
X221.414 Y83.549 Z-30.729
X221.38 Y83.455 Z-30.71
X221.348 Y83.365 Z-30.677
X221.316 Y83.279 Z-30.632
X221.304 Y83.193 Z-30.575
X221.293 Y83.115 Z-30.506
X221.283 Y83.047 Z-30.427
X221.275 Y82.99 Z-30.34
X221.268 Y82.945 Z-30.246
X221.264 Y82.912 Z-30.147
X221.261 Y82.893 Z-30.045
X221.261 Y82.888 Z-29.951
G0 Z9.08
X336.725 Y247.253
Z2.54
G1 X337.12 Y247.19 Z2.526 F333
X337.516 Y247.143 Z2.512
X337.914 Y247.112 Z2.498
X338.313 Y247.096 Z2.484
X338.712 Y247.097 Z2.47
X339.111 Y247.113 Z2.456
X339.509 Y247.145 Z2.442
X339.905 Y247.193 Z2.428
X340.299 Y247.257 Z2.415
X340.691 Y247.336 Z2.401
X341.078 Y247.431 Z2.387
X341.462 Y247.541 Z2.373
X341.841 Y247.666 Z2.359
X342.215 Y247.807 Z2.345
X342.583 Y247.961 Z2.331
X342.944 Y248.131 Z2.317
X343.299 Y248.314 Z2.303
X343.646 Y248.512 Z2.289
X343.984 Y248.723 Z2.275
X344.314 Y248.948 Z2.261
X344.635 Y249.185 Z2.247
X344.947 Y249.435 Z2.233
X345.248 Y249.697 Z2.219
X345.538 Y249.971 Z2.205
X345.817 Y250.256 Z2.191
X346.085 Y250.552 Z2.178
X346.341 Y250.859 Z2.164
X346.584 Y251.175 Z2.15
X346.815 Y251.501 Z2.136
X347.033 Y251.836 Z2.122
X347.237 Y252.179 Z2.108
X347.427 Y252.53 Z2.094
X347.603 Y252.888 Z2.08
X347.765 Y253.253 Z2.066
X347.912 Y253.624 Z2.052
X348.044 Y254 Z2.038
X348.162 Y254.382 Z2.024
X348.264 Y254.768 Z2.01
X348.35 Y255.158 Z1.996
X348.422 Y255.55 Z1.982
X348.477 Y255.946 Z1.968
X348.517 Y256.343 Z1.954
X348.541 Y256.741 Z1.941
X348.549 Y257.141 Z1.927
X348.541 Y257.54 Z1.913
X348.517 Y257.938 Z1.899
X348.478 Y258.335 Z1.885
X348.422 Y258.731 Z1.871
X348.352 Y259.124 Z1.857
X348.265 Y259.513 Z1.843
X348.164 Y259.898 Z1.829
X348.047 Y260.279 Z1.815
X347.915 Y260.655 Z1.801
X347.768 Y261.025 Z1.787
X347.607 Y261.389 Z1.773
X347.431 Y261.747 Z1.759
X347.242 Y262.097 Z1.745
X347.038 Y262.439 Z1.731
X346.822 Y262.773 Z1.717
X346.592 Y263.098 Z1.704
X346.349 Y263.414 Z1.69
X346.094 Y263.72 Z1.676
X345.827 Y264.015 Z1.662
X345.549 Y264.3 Z1.648
X345.259 Y264.573 Z1.634
X344.959 Y264.835 Z1.62
X344.648 Y265.085 Z1.606
X344.328 Y265.322 Z1.592
X343.999 Y265.546 Z1.578
X343.661 Y265.757 Z1.564
X343.315 Y265.954 Z1.55
X342.962 Y266.137 Z1.536
X342.601 Y266.306 Z1.522
X342.235 Y266.461 Z1.508
X341.862 Y266.601 Z1.494
X341.484 Y266.726 Z1.48
X341.101 Y266.836 Z1.467
X340.714 Y266.931 Z1.453
X340.324 Y267.01 Z1.439
X339.931 Y267.074 Z1.425
X339.536 Y267.122 Z1.411
X339.139 Y267.154 Z1.397
X338.741 Y267.171 Z1.383
X338.343 Y267.172 Z1.369
X337.945 Y267.157 Z1.355
X337.548 Y267.126 Z1.341
X337.152 Y267.079 Z1.327
X336.759 Y267.017 Z1.313
X336.368 Y266.939 Z1.299
X335.981 Y266.846 Z1.285
X335.598 Y266.737 Z1.271
X335.219 Y266.613 Z1.257
X334.846 Y266.474 Z1.243
X334.479 Y266.321 Z1.23
X334.118 Y266.153 Z1.216
X333.763 Y265.971 Z1.202
X333.417 Y265.775 Z1.188
X333.078 Y265.565 Z1.174
X332.748 Y265.342 Z1.16
X332.427 Y265.107 Z1.146
X332.117 Y264.859 Z1.132
X331.817 Y264.599 Z1.118
X331.527 Y264.327 Z1.104
X331.248 Y264.044 Z1.09
X330.98 Y263.75 Z1.076
X330.725 Y263.446 Z1.062
X330.482 Y263.132 Z1.048
X330.251 Y262.809 Z1.034
X330.034 Y262.476 Z1.02
X329.83 Y262.135 Z1.006
X329.639 Y261.787 Z0.993
X329.463 Y261.431 Z0.979
X329.301 Y261.068 Z0.965
X329.153 Y260.699 Z0.951
X329.02 Y260.325 Z0.937
X328.902 Y259.946 Z0.923
X328.8 Y259.562 Z0.909
X328.712 Y259.174 Z0.895
X328.64 Y258.784 Z0.881
X328.584 Y258.39 Z0.867
X328.543 Y257.995 Z0.853
X328.518 Y257.599 Z0.839
X328.509 Y257.202 Z0.825
X328.515 Y256.804 Z0.811
X328.538 Y256.408 Z0.797
X328.576 Y256.012 Z0.783
X328.63 Y255.619 Z0.769
X328.699 Y255.228 Z0.756
X328.784 Y254.839 Z0.742
X328.884 Y254.455 Z0.728
X328.999 Y254.075 Z0.714
X329.13 Y253.7 Z0.7
X329.275 Y253.33 Z0.686
X329.435 Y252.966 Z0.672
X329.609 Y252.609 Z0.658
X329.797 Y252.259 Z0.644
X329.999 Y251.917 Z0.63
X330.214 Y251.583 Z0.616
X330.442 Y251.258 Z0.602
X330.683 Y250.942 Z0.588
X330.937 Y250.636 Z0.574
X331.202 Y250.341 Z0.56
X331.479 Y250.056 Z0.546
X331.767 Y249.782 Z0.533
X332.066 Y249.521 Z0.519
X332.375 Y249.271 Z0.505
X332.693 Y249.033 Z0.491
X333.021 Y248.809 Z0.477
X333.357 Y248.597 Z0.463
X333.702 Y248.399 Z0.449
X334.053 Y248.216 Z0.435
X334.411 Y248.046 Z0.421
X334.776 Y247.891 Z0.407
X335.147 Y247.751 Z0.393
X335.522 Y247.625 Z0.379
X335.903 Y247.515 Z0.365
X336.288 Y247.419 Z0.351
X336.676 Y247.339 Z0.337
X337.067 Y247.274 Z0.323
X337.46 Y247.225 Z0.309
X337.855 Y247.192 Z0.296
X338.251 Y247.174 Z0.282
X338.647 Y247.172 Z0.268
X339.043 Y247.186 Z0.254
X339.438 Y247.216 Z0.24
X339.832 Y247.261 Z0.226
X340.224 Y247.322 Z0.212
X340.612 Y247.398 Z0.198
X340.998 Y247.49 Z0.184
X341.38 Y247.597 Z0.17
X341.757 Y247.719 Z0.156
X342.128 Y247.856 Z0.142
X342.495 Y248.007 Z0.128
X342.854 Y248.173 Z0.114
X343.207 Y248.353 Z0.1
X343.553 Y248.547 Z0.086
X343.891 Y248.755 Z0.072
X344.22 Y248.976 Z0.059
X344.54 Y249.21 Z0.045
X344.85 Y249.456 Z0.031
X345.151 Y249.714 Z0.017
X345.441 Y249.984 Z0.003
X345.72 Y250.266 Z-0.011
X345.987 Y250.558 Z-0.025
X346.243 Y250.861 Z-0.039
X346.487 Y251.173 Z-0.053
X346.717 Y251.495 Z-0.067
X346.935 Y251.826 Z-0.081
X347.14 Y252.166 Z-0.095
X347.331 Y252.513 Z-0.109
X347.508 Y252.868 Z-0.123
X347.671 Y253.229 Z-0.137
X347.819 Y253.596 Z-0.151
X347.953 Y253.969 Z-0.165
X348.072 Y254.347 Z-0.178
X348.176 Y254.73 Z-0.192
X348.264 Y255.116 Z-0.206
X348.337 Y255.506 Z-0.22
X348.394 Y255.898 Z-0.234
X348.436 Y256.292 Z-0.248
X348.462 Y256.686 Z-0.262
X348.473 Y257.082 Z-0.276
X348.467 Y257.477 Z-0.29
X348.446 Y257.872 Z-0.304
X348.409 Y258.265 Z-0.318
X348.357 Y258.657 Z-0.332
X348.289 Y259.047 Z-0.346
X348.206 Y259.433 Z-0.36
X348.108 Y259.816 Z-0.374
X347.994 Y260.195 Z-0.388
X347.865 Y260.568 Z-0.402
X347.722 Y260.937 Z-0.415
X347.564 Y261.299 Z-0.429
X347.392 Y261.655 Z-0.443
X347.206 Y262.004 Z-0.457
X347.006 Y262.345 Z-0.471
X346.793 Y262.678 Z-0.485
X346.567 Y263.002 Z-0.499
X346.328 Y263.317 Z-0.513
X346.076 Y263.622 Z-0.527
X345.813 Y263.917 Z-0.541
X345.538 Y264.201 Z-0.555
X345.252 Y264.474 Z-0.569
X344.956 Y264.736 Z-0.583
X344.649 Y264.986 Z-0.597
X344.333 Y265.223 Z-0.611
X344.008 Y265.447 Z-0.625
X343.674 Y265.659 Z-0.639
X343.332 Y265.857 Z-0.652
X342.982 Y266.041 Z-0.666
X342.625 Y266.211 Z-0.68
X342.262 Y266.367 Z-0.694
X341.892 Y266.508 Z-0.708
X341.518 Y266.634 Z-0.722
X341.139 Y266.746 Z-0.736
X340.755 Y266.842 Z-0.75
X340.368 Y266.923 Z-0.764
X339.978 Y266.989 Z-0.778
X339.586 Y267.039 Z-0.792
X339.192 Y267.074 Z-0.806
X338.798 Y267.092 Z-0.82
X338.402 Y267.096 Z-0.834
X338.007 Y267.083 Z-0.848
X337.613 Y267.055 Z-0.862
X337.22 Y267.011 Z-0.876
X336.829 Y266.951 Z-0.889
X336.441 Y266.876 Z-0.903
X336.056 Y266.786 Z-0.917
X335.675 Y266.681 Z-0.931
X335.299 Y266.56 Z-0.945
X334.928 Y266.425 Z-0.959
X334.563 Y266.275 Z-0.973
X334.205 Y266.111 Z-0.987
X333.853 Y265.933 Z-1.001
X333.508 Y265.741 Z-1.015
X333.172 Y265.535 Z-1.029
X332.844 Y265.317 Z-1.043
X332.525 Y265.085 Z-1.057
X332.215 Y264.841 Z-1.071
X331.915 Y264.585 Z-1.085
X331.626 Y264.317 Z-1.099
X331.347 Y264.037 Z-1.113
X331.08 Y263.747 Z-1.126
X330.825 Y263.447 Z-1.14
X330.581 Y263.137 Z-1.154
X330.35 Y262.817 Z-1.168
X330.132 Y262.488 Z-1.182
X329.928 Y262.151 Z-1.196
X329.737 Y261.806 Z-1.21
X329.559 Y261.454 Z-1.224
X329.396 Y261.095 Z-1.238
X329.247 Y260.73 Z-1.252
X329.113 Y260.359 Z-1.266
X328.994 Y259.983 Z-1.28
X328.89 Y259.603 Z-1.294
X328.801 Y259.218 Z-1.308
X328.727 Y258.831 Z-1.322
X328.668 Y258.441 Z-1.336
X328.626 Y258.049 Z-1.35
X328.598 Y257.656 Z-1.363
X328.587 Y257.261 Z-1.377
X328.591 Y256.867 Z-1.391
X328.611 Y256.473 Z-1.405
X328.646 Y256.08 Z-1.419
X328.697 Y255.689 Z-1.433
X328.764 Y255.301 Z-1.447
X328.846 Y254.915 Z-1.461
X328.943 Y254.533 Z-1.475
X329.055 Y254.155 Z-1.489
X329.182 Y253.781 Z-1.503
X329.324 Y253.413 Z-1.517
X329.48 Y253.051 Z-1.531
X329.651 Y252.696 Z-1.545
X329.836 Y252.347 Z-1.559
X330.034 Y252.006 Z-1.573
X330.246 Y251.674 Z-1.587
X330.47 Y251.35 Z-1.6
X330.708 Y251.035 Z-1.614
X330.957 Y250.73 Z-1.628
X331.219 Y250.435 Z-1.642
X331.492 Y250.151 Z-1.656
X331.775 Y249.878 Z-1.67
X332.069 Y249.617 Z-1.684
X332.374 Y249.368 Z-1.698
X332.688 Y249.131 Z-1.712
X333.011 Y248.906 Z-1.726
X333.343 Y248.695 Z-1.74
X333.683 Y248.497 Z-1.754
X334.03 Y248.313 Z-1.768
X334.385 Y248.142 Z-1.782
X334.746 Y247.986 Z-1.796
X335.113 Y247.844 Z-1.81
X335.485 Y247.717 Z-1.824
X335.862 Y247.605 Z-1.837
X336.243 Y247.508 Z-1.851
X336.628 Y247.426 Z-1.865
X337.016 Y247.36 Z-1.879
X337.406 Y247.309 Z-1.893
X337.798 Y247.273 Z-1.907
X338.191 Y247.253 Z-1.921
X338.584 Y247.249 Z-1.935
X338.977 Y247.26 Z-1.949
X339.37 Y247.287 Z-1.963
X339.761 Y247.33 Z-1.977
X340.15 Y247.388 Z-1.991
X340.536 Y247.461 Z-2.005
X340.92 Y247.55 Z-2.019
X341.299 Y247.654 Z-2.033
X341.674 Y247.773 Z-2.047
X342.044 Y247.906 Z-2.061
X342.409 Y248.055 Z-2.074
X342.767 Y248.217 Z-2.088
X343.118 Y248.394 Z-2.102
X343.462 Y248.584 Z-2.116
X343.799 Y248.788 Z-2.13
X344.127 Y249.006 Z-2.144
X344.446 Y249.236 Z-2.158
X344.756 Y249.478 Z-2.172
X345.055 Y249.733 Z-2.186
X345.345 Y249.999 Z-2.2
X345.624 Y250.277 Z-2.214
X345.891 Y250.566 Z-2.228
X346.147 Y250.865 Z-2.242
X346.39 Y251.173 Z-2.256
X346.622 Y251.492 Z-2.27
X346.84 Y251.819 Z-2.284
X347.045 Y252.154 Z-2.298
X347.237 Y252.498 Z-2.311
X347.415 Y252.849 Z-2.325
X347.579 Y253.206 Z-2.339
X347.728 Y253.569 Z-2.353
X347.862 Y253.938 Z-2.367
X347.982 Y254.312 Z-2.381
X348.087 Y254.69 Z-2.395
X348.177 Y255.072 Z-2.409
X348.252 Y255.457 Z-2.423
X348.311 Y255.845 Z-2.437
X348.355 Y256.235 Z-2.451
X348.383 Y256.626 Z-2.465
X348.396 Y257.019 Z-2.479
X348.393 Y257.411 Z-2.493
X348.374 Y257.803 Z-2.507
X348.34 Y258.194 Z-2.521
X348.291 Y258.583 Z-2.535
X348.226 Y258.97 Z-2.548
X348.145 Y259.354 Z-2.562
X348.05 Y259.735 Z-2.576
X347.939 Y260.112 Z-2.59
X347.814 Y260.484 Z-2.604
X347.674 Y260.85 Z-2.618
X347.519 Y261.211 Z-2.632
X347.351 Y261.565 Z-2.646
X347.168 Y261.912 Z-2.66
X346.972 Y262.252 Z-2.674
X346.762 Y262.584 Z-2.688
X346.539 Y262.907 Z-2.702
X346.304 Y263.221 Z-2.716
X346.056 Y263.526 Z-2.73
X345.797 Y263.82 Z-2.744
X345.526 Y264.104 Z-2.758
X345.244 Y264.377 Z-2.772
X344.951 Y264.638 Z-2.785
X344.648 Y264.888 Z-2.799
X344.336 Y265.125 Z-2.813
X344.014 Y265.35 Z-2.827
X343.684 Y265.562 Z-2.841
X343.345 Y265.76 Z-2.855
X342.999 Y265.945 Z-2.869
X342.646 Y266.116 Z-2.883
X342.286 Y266.273 Z-2.897
X341.921 Y266.416 Z-2.911
X341.55 Y266.543 Z-2.925
X341.174 Y266.656 Z-2.939
X340.794 Y266.754 Z-2.953
X340.41 Y266.837 Z-2.967
X340.024 Y266.905 Z-2.981
X339.635 Y266.957 Z-2.995
X339.244 Y266.993 Z-3.008
X338.852 Y267.014 Z-3.022
X338.46 Y267.02 Z-3.036
X338.068 Y267.01 Z-3.05
X337.678 Y266.984 Z-3.064
X337.289 Y266.943 Z-3.078
X336.901 Y266.887 Z-3.092
X336.516 Y266.815 Z-3.106
X336.135 Y266.728 Z-3.12
X335.757 Y266.625 Z-3.134
X335.383 Y266.508 Z-3.148
X335.015 Y266.376 Z-3.162
X334.652 Y266.23 Z-3.176
X334.295 Y266.069 Z-3.19
X333.944 Y265.895 Z-3.204
X333.601 Y265.706 Z-3.218
X333.266 Y265.504 Z-3.232
X332.939 Y265.289 Z-3.245
X332.621 Y265.061 Z-3.259
X332.312 Y264.82 Z-3.273
X332.013 Y264.568 Z-3.287
X331.724 Y264.304 Z-3.301
X331.446 Y264.028 Z-3.315
X331.179 Y263.742 Z-3.329
X330.923 Y263.445 Z-3.343
X330.68 Y263.139 Z-3.357
X330.449 Y262.823 Z-3.371
X330.231 Y262.498 Z-3.385
X330.025 Y262.164 Z-3.399
X329.834 Y261.823 Z-3.413
X329.656 Y261.475 Z-3.427
X329.491 Y261.119 Z-3.441
X329.342 Y260.758 Z-3.455
X329.206 Y260.39 Z-3.469
X329.085 Y260.018 Z-3.482
X328.98 Y259.641 Z-3.496
X328.889 Y259.26 Z-3.51
X328.813 Y258.876 Z-3.524
X328.753 Y258.489 Z-3.538
X328.708 Y258.1 Z-3.552
X328.679 Y257.71 Z-3.566
X328.665 Y257.319 Z-3.58
X328.667 Y256.927 Z-3.594
X328.684 Y256.536 Z-3.608
X328.717 Y256.146 Z-3.622
X328.765 Y255.758 Z-3.636
X328.829 Y255.371 Z-3.65
X328.907 Y254.988 Z-3.664
X329.002 Y254.608 Z-3.678
X329.111 Y254.232 Z-3.692
X329.235 Y253.861 Z-3.706
X329.373 Y253.495 Z-3.719
X329.526 Y253.134 Z-3.733
X329.693 Y252.781 Z-3.747
X329.874 Y252.435 Z-3.761
X330.068 Y252.096 Z-3.775
X330.276 Y251.766 Z-3.789
X330.496 Y251.443 Z-3.803
X330.729 Y251.13 Z-3.817
X330.975 Y250.827 Z-3.831
X331.232 Y250.533 Z-3.845
X331.501 Y250.25 Z-3.859
X331.781 Y249.977 Z-3.873
X332.071 Y249.716 Z-3.887
X332.372 Y249.467 Z-3.901
X332.682 Y249.23 Z-3.915
X333.002 Y249.005 Z-3.929
X333.33 Y248.793 Z-3.943
X333.666 Y248.595 Z-3.956
X334.01 Y248.41 Z-3.97
X334.361 Y248.238 Z-3.984
X334.718 Y248.081 Z-3.998
X335.082 Y247.938 Z-4.012
X335.45 Y247.81 Z-4.026
X335.824 Y247.696 Z-4.04
X336.202 Y247.598 Z-4.054
X336.583 Y247.514 Z-4.068
X336.968 Y247.446 Z-4.082
X337.355 Y247.393 Z-4.096
X337.743 Y247.355 Z-4.11
X338.133 Y247.333 Z-4.124
X338.524 Y247.326 Z-4.138
X338.914 Y247.335 Z-4.152
X339.304 Y247.36 Z-4.166
X339.692 Y247.399 Z-4.18
X340.079 Y247.455 Z-4.193
X340.463 Y247.525 Z-4.207
X340.844 Y247.611 Z-4.221
X341.221 Y247.712 Z-4.235
X341.594 Y247.827 Z-4.249
X341.962 Y247.958 Z-4.263
X342.325 Y248.103 Z-4.277
X342.681 Y248.262 Z-4.291
X343.031 Y248.435 Z-4.305
X343.374 Y248.622 Z-4.319
X343.709 Y248.823 Z-4.333
X344.036 Y249.036 Z-4.347
X344.354 Y249.263 Z-4.361
X344.663 Y249.502 Z-4.375
X344.962 Y249.753 Z-4.389
X345.251 Y250.015 Z-4.403
X345.529 Y250.289 Z-4.417
X345.796 Y250.574 Z-4.43
X346.051 Y250.869 Z-4.444
X346.295 Y251.173 Z-4.458
X346.525 Y251.487 Z-4.472
X346.744 Y251.809 Z-4.486
X346.949 Y252.14 Z-4.5
X347.141 Y252.479 Z-4.514
X347.319 Y252.826 Z-4.528
X347.483 Y253.179 Z-4.542
X347.634 Y253.538 Z-4.556
X347.77 Y253.903 Z-4.57
X347.891 Y254.274 Z-4.584
X347.997 Y254.648 Z-4.598
X348.089 Y255.027 Z-4.612
X348.165 Y255.409 Z-4.626
X348.226 Y255.794 Z-4.64
X348.272 Y256.18 Z-4.654
X348.302 Y256.569 Z-4.667
X348.317 Y256.958 Z-4.681
X348.317 Y257.348 Z-4.695
X348.301 Y257.737 Z-4.709
X348.269 Y258.125 Z-4.723
X348.223 Y258.512 Z-4.737
X348.161 Y258.896 Z-4.751
X348.083 Y259.278 Z-4.765
X347.991 Y259.656 Z-4.779
X347.883 Y260.031 Z-4.793
X347.761 Y260.401 Z-4.807
X347.624 Y260.765 Z-4.821
X347.473 Y261.124 Z-4.835
X347.308 Y261.477 Z-4.849
X347.128 Y261.823 Z-4.863
X346.936 Y262.161 Z-4.877
X346.73 Y262.492 Z-4.891
X346.511 Y262.814 Z-4.904
X346.279 Y263.127 Z-4.918
X346.035 Y263.431 Z-4.932
X345.779 Y263.725 Z-4.946
X345.512 Y264.008 Z-4.96
X345.234 Y264.281 Z-4.974
X344.945 Y264.542 Z-4.988
X344.646 Y264.791 Z-5.002
X344.337 Y265.029 Z-5.016
X344.019 Y265.254 Z-5.03
X343.692 Y265.466 Z-5.044
X343.357 Y265.665 Z-5.058
X343.015 Y265.851 Z-5.072
X342.665 Y266.023 Z-5.086
X342.309 Y266.181 Z-5.1
X341.947 Y266.324 Z-5.114
X341.58 Y266.454 Z-5.128
X341.208 Y266.568 Z-5.141
X340.833 Y266.667 Z-5.155
X340.453 Y266.751 Z-5.169
X340.071 Y266.82 Z-5.183
X339.686 Y266.874 Z-5.197
X339.3 Y266.913 Z-5.211
X338.912 Y266.936 Z-5.225
X338.523 Y266.944 Z-5.239
X338.135 Y266.936 Z-5.253
X337.747 Y266.913 Z-5.267
X337.36 Y266.875 Z-5.281
X336.975 Y266.821 Z-5.295
X336.593 Y266.752 Z-5.309
X336.214 Y266.668 Z-5.323
X335.838 Y266.569 Z-5.337
X335.467 Y266.455 Z-5.351
X335.1 Y266.326 Z-5.365
X334.739 Y266.183 Z-5.378
X334.383 Y266.026 Z-5.392
X334.035 Y265.854 Z-5.406
X333.693 Y265.669 Z-5.42
X333.359 Y265.471 Z-5.434
X333.033 Y265.259 Z-5.448
X332.716 Y265.035 Z-5.462
X332.408 Y264.798 Z-5.476
X332.109 Y264.549 Z-5.49
X331.821 Y264.289 Z-5.504
X331.543 Y264.017 Z-5.518
X331.277 Y263.734 Z-5.532
X331.021 Y263.441 Z-5.546
X330.778 Y263.139 Z-5.56
X330.547 Y262.826 Z-5.574
X330.328 Y262.505 Z-5.588
X330.122 Y262.175 Z-5.602
X329.93 Y261.838 Z-5.615
X329.751 Y261.493 Z-5.629
X329.586 Y261.141 Z-5.643
X329.435 Y260.783 Z-5.657
X329.298 Y260.419 Z-5.671
X329.176 Y260.051 Z-5.685
X329.069 Y259.677 Z-5.699
X328.976 Y259.3 Z-5.713
X328.899 Y258.919 Z-5.727
X328.837 Y258.535 Z-5.741
X328.79 Y258.15 Z-5.755
X328.759 Y257.762 Z-5.769
X328.742 Y257.374 Z-5.783
X328.742 Y256.986 Z-5.797
X328.757 Y256.597 Z-5.811
X328.787 Y256.21 Z-5.825
X328.832 Y255.825 Z-5.839
X328.893 Y255.442 Z-5.852
X328.969 Y255.062 Z-5.866
X329.06 Y254.685 Z-5.88
X329.165 Y254.312 Z-5.894
X329.286 Y253.944 Z-5.908
X329.421 Y253.581 Z-5.922
X329.57 Y253.223 Z-5.936
X329.734 Y252.872 Z-5.95
X329.911 Y252.527 Z-5.964
X330.102 Y252.189 Z-5.978
X330.306 Y251.86 Z-5.992
X330.523 Y251.539 Z-6.006
X330.752 Y251.226 Z-6.02
X330.994 Y250.924 Z-6.034
X331.248 Y250.63 Z-6.048
X331.513 Y250.348 Z-6.062
X331.789 Y250.076 Z-6.076
X332.076 Y249.815 Z-6.089
X332.372 Y249.566 Z-6.103
X332.679 Y249.328 Z-6.117
X332.995 Y249.103 Z-6.131
X333.319 Y248.891 Z-6.145
X333.652 Y248.692 Z-6.159
X333.992 Y248.506 Z-6.173
X334.339 Y248.334 Z-6.187
X334.693 Y248.176 Z-6.201
X335.053 Y248.032 Z-6.215
X335.418 Y247.902 Z-6.229
X335.788 Y247.787 Z-6.243
X336.163 Y247.687 Z-6.257
X336.541 Y247.602 Z-6.271
X336.922 Y247.532 Z-6.285
X337.305 Y247.477 Z-6.299
X337.691 Y247.437 Z-6.313
X338.078 Y247.413 Z-6.326
X338.465 Y247.404 Z-6.34
X338.853 Y247.41 Z-6.354
X339.24 Y247.432 Z-6.368
X339.626 Y247.469 Z-6.382
X340.01 Y247.522 Z-6.396
X340.391 Y247.589 Z-6.41
X340.77 Y247.672 Z-6.424
X341.145 Y247.77 Z-6.438
X341.516 Y247.883 Z-6.452
X341.882 Y248.01 Z-6.466
X342.243 Y248.151 Z-6.48
X342.598 Y248.307 Z-6.494
X342.946 Y248.477 Z-6.508
X343.288 Y248.661 Z-6.522
X343.627 Y248.861 Z-6.536
X343.958 Y249.076 Z-6.55
X344.281 Y249.303 Z-6.564
X344.594 Y249.543 Z-6.579
X344.897 Y249.796 Z-6.593
X345.189 Y250.061 Z-6.607
X345.47 Y250.338 Z-6.621
X345.74 Y250.625 Z-6.635
X345.998 Y250.924 Z-6.65
X346.244 Y251.233 Z-6.664
X346.477 Y251.551 Z-6.678
X346.697 Y251.878 Z-6.692
X346.903 Y252.215 Z-6.707
X347.096 Y252.559 Z-6.721
X347.275 Y252.911 Z-6.735
X347.439 Y253.269 Z-6.749
X347.588 Y253.634 Z-6.763
X347.723 Y254.005 Z-6.778
X347.842 Y254.381 Z-6.792
X347.947 Y254.762 Z-6.806
X348.035 Y255.146 Z-6.82
X348.108 Y255.534 Z-6.835
X348.165 Y255.924 Z-6.849
X348.207 Y256.317 Z-6.863
X348.232 Y256.71 Z-6.877
X348.241 Y257.105 Z-6.891
X348.235 Y257.499 Z-6.906
X348.212 Y257.893 Z-6.92
X348.174 Y258.286 Z-6.934
X348.119 Y258.676 Z-6.948
X348.049 Y259.065 Z-6.963
X347.963 Y259.45 Z-6.977
X347.862 Y259.831 Z-6.991
X347.745 Y260.208 Z-7.005
X347.613 Y260.58 Z-7.02
X347.466 Y260.946 Z-7.034
X347.305 Y261.306 Z-7.048
X347.129 Y261.659 Z-7.062
X346.938 Y262.004 Z-7.076
X346.734 Y262.342 Z-7.091
X346.517 Y262.671 Z-7.105
X346.286 Y262.991 Z-7.119
X346.042 Y263.301 Z-7.133
X345.786 Y263.602 Z-7.148
X345.518 Y263.891 Z-7.162
X345.239 Y264.17 Z-7.176
X344.949 Y264.437 Z-7.19
X344.648 Y264.692 Z-7.204
X344.336 Y264.934 Z-7.219
X344.017 Y265.164 Z-7.233
X343.688 Y265.38 Z-7.247
X343.35 Y265.582 Z-7.261
X343.005 Y265.771 Z-7.276
X342.652 Y265.945 Z-7.29
X342.293 Y266.105 Z-7.304
X341.927 Y266.251 Z-7.318
X341.556 Y266.381 Z-7.332
X341.179 Y266.497 Z-7.347
X340.799 Y266.597 Z-7.361
X340.414 Y266.681 Z-7.375
X340.027 Y266.75 Z-7.389
X339.637 Y266.803 Z-7.404
X339.245 Y266.84 Z-7.418
X338.852 Y266.861 Z-7.432
X338.459 Y266.867 Z-7.446
X338.065 Y266.856 Z-7.46
X337.673 Y266.83 Z-7.475
X337.282 Y266.787 Z-7.489
X336.892 Y266.729 Z-7.503
X336.506 Y266.655 Z-7.517
X336.123 Y266.565 Z-7.532
X335.743 Y266.46 Z-7.546
X335.369 Y266.34 Z-7.56
X334.999 Y266.205 Z-7.574
X334.635 Y266.054 Z-7.589
X334.278 Y265.889 Z-7.603
X333.928 Y265.71 Z-7.617
X333.585 Y265.517 Z-7.631
X333.25 Y265.31 Z-7.645
X332.924 Y265.09 Z-7.66
X332.607 Y264.856 Z-7.674
X332.3 Y264.61 Z-7.688
X332.003 Y264.352 Z-7.702
X331.717 Y264.081 Z-7.717
X331.442 Y263.8 Z-7.731
X331.179 Y263.508 Z-7.745
X330.928 Y263.205 Z-7.759
X330.689 Y262.892 Z-7.773
X330.463 Y262.57 Z-7.788
X330.25 Y262.238 Z-7.802
X330.051 Y261.899 Z-7.816
X329.866 Y261.552 Z-7.83
X329.695 Y261.197 Z-7.845
X329.539 Y260.836 Z-7.859
X329.397 Y260.469 Z-7.873
X329.271 Y260.096 Z-7.887
X329.159 Y259.719 Z-7.901
X329.063 Y259.337 Z-7.916
X328.983 Y258.953 Z-7.93
X328.918 Y258.566 Z-7.944
X328.869 Y258.176 Z-7.958
X328.836 Y257.785 Z-7.973
X328.819 Y257.393 Z-7.987
X328.817 Y257.001 Z-8.001
X328.832 Y256.608 Z-8.015
X328.863 Y256.217 Z-8.03
X328.909 Y255.827 Z-8.044
X328.971 Y255.44 Z-8.058
X329.049 Y255.055 Z-8.072
X329.142 Y254.673 Z-8.086
X329.251 Y254.296 Z-8.101
X329.374 Y253.924 Z-8.115
X329.513 Y253.557 Z-8.129
X329.667 Y253.195 Z-8.143
X329.835 Y252.841 Z-8.158
X330.017 Y252.493 Z-8.172
X330.214 Y252.153 Z-8.186
X330.423 Y251.821 Z-8.2
X330.647 Y251.498 Z-8.214
X330.883 Y251.185 Z-8.229
X331.131 Y250.881 Z-8.243
X331.392 Y250.587 Z-8.257
X331.664 Y250.305 Z-8.271
X331.948 Y250.033 Z-8.286
X332.242 Y249.774 Z-8.3
X332.547 Y249.526 Z-8.314
X332.862 Y249.291 Z-8.328
X333.185 Y249.069 Z-8.342
X333.518 Y248.86 Z-8.357
X333.858 Y248.665 Z-8.371
X334.207 Y248.484 Z-8.385
X334.562 Y248.317 Z-8.399
X334.924 Y248.165 Z-8.414
X335.291 Y248.027 Z-8.428
X335.664 Y247.905 Z-8.442
X336.042 Y247.798 Z-8.456
X336.424 Y247.706 Z-8.471
X336.809 Y247.629 Z-8.485
X337.196 Y247.569 Z-8.499
X337.586 Y247.524 Z-8.513
X337.978 Y247.495 Z-8.527
X338.37 Y247.481 Z-8.542
X338.763 Y247.484 Z-8.556
X339.155 Y247.503 Z-8.57
X339.546 Y247.537 Z-8.584
X339.935 Y247.587 Z-8.599
X340.322 Y247.654 Z-8.613
X340.705 Y247.735 Z-8.627
X341.084 Y247.832 Z-8.641
X341.46 Y247.944 Z-8.655
X341.83 Y248.071 Z-8.67
X342.195 Y248.214 Z-8.684
X342.553 Y248.371 Z-8.698
X342.906 Y248.542 Z-8.712
X343.25 Y248.727 Z-8.727
X343.588 Y248.927 Z-8.741
X343.916 Y249.139 Z-8.755
X344.236 Y249.365 Z-8.769
X344.546 Y249.604 Z-8.783
X344.847 Y249.855 Z-8.798
X345.137 Y250.118 Z-8.812
X345.416 Y250.393 Z-8.826
X345.684 Y250.678 Z-8.84
X345.94 Y250.974 Z-8.855
X346.184 Y251.281 Z-8.869
X346.415 Y251.597 Z-8.883
X346.633 Y251.922 Z-8.897
X346.838 Y252.256 Z-8.911
X347.029 Y252.598 Z-8.926
X347.206 Y252.947 Z-8.94
X347.369 Y253.303 Z-8.954
X347.517 Y253.665 Z-8.968
X347.651 Y254.033 Z-8.983
X347.769 Y254.407 Z-8.997
X347.872 Y254.784 Z-9.011
X347.96 Y255.166 Z-9.025
X348.032 Y255.551 Z-9.04
X348.089 Y255.938 Z-9.054
X348.13 Y256.328 Z-9.068
X348.155 Y256.718 Z-9.082
X348.164 Y257.11 Z-9.096
X348.157 Y257.501 Z-9.111
X348.135 Y257.892 Z-9.125
X348.096 Y258.282 Z-9.139
X348.042 Y258.67 Z-9.153
X347.972 Y259.055 Z-9.168
X347.887 Y259.437 Z-9.182
X347.786 Y259.816 Z-9.196
X347.67 Y260.19 Z-9.21
X347.539 Y260.559 Z-9.224
X347.393 Y260.922 Z-9.239
X347.232 Y261.279 Z-9.253
X347.058 Y261.629 Z-9.267
X346.869 Y261.972 Z-9.281
X346.666 Y262.307 Z-9.296
X346.45 Y262.634 Z-9.31
X346.221 Y262.95 Z-9.324
X345.98 Y263.258 Z-9.338
X345.726 Y263.555 Z-9.352
X345.461 Y263.841 Z-9.367
X345.184 Y264.117 Z-9.381
X344.897 Y264.381 Z-9.395
X344.599 Y264.634 Z-9.409
X344.291 Y264.874 Z-9.424
X343.973 Y265.101 Z-9.438
X343.646 Y265.315 Z-9.452
X343.311 Y265.516 Z-9.466
X342.969 Y265.703 Z-9.481
X342.619 Y265.876 Z-9.495
X342.262 Y266.035 Z-9.509
X341.899 Y266.179 Z-9.523
X341.53 Y266.309 Z-9.537
X341.157 Y266.423 Z-9.552
X340.779 Y266.522 Z-9.566
X340.397 Y266.606 Z-9.58
X340.013 Y266.674 Z-9.594
X339.626 Y266.726 Z-9.609
X339.237 Y266.763 Z-9.623
X338.847 Y266.784 Z-9.637
X338.456 Y266.789 Z-9.651
X338.066 Y266.779 Z-9.665
X337.676 Y266.752 Z-9.68
X337.288 Y266.71 Z-9.694
X336.902 Y266.652 Z-9.708
X336.518 Y266.578 Z-9.722
X336.138 Y266.489 Z-9.737
X335.761 Y266.385 Z-9.751
X335.39 Y266.265 Z-9.765
X335.023 Y266.131 Z-9.779
X334.662 Y265.981 Z-9.793
X334.307 Y265.818 Z-9.808
X333.96 Y265.64 Z-9.822
X333.62 Y265.448 Z-9.836
X333.288 Y265.242 Z-9.85
X332.964 Y265.023 Z-9.865
X332.65 Y264.791 Z-9.879
X332.345 Y264.547 Z-9.893
X332.051 Y264.29 Z-9.907
X331.767 Y264.022 Z-9.922
X331.494 Y263.743 Z-9.936
X331.233 Y263.452 Z-9.95
X330.983 Y263.152 Z-9.964
X330.746 Y262.841 Z-9.978
X330.522 Y262.521 Z-9.993
X330.311 Y262.192 Z-10.007
X330.115 Y261.856 Z-10.021
X329.931 Y261.512 Z-10.035
X329.762 Y261.161 Z-10.05
X329.608 Y260.804 Z-10.064
X329.467 Y260.44 Z-10.078
X329.342 Y260.071 Z-10.092
X329.232 Y259.698 Z-10.106
X329.137 Y259.32 Z-10.121
X329.058 Y258.939 Z-10.135
X328.994 Y258.554 Z-10.149
X328.945 Y258.168 Z-10.163
X328.912 Y257.779 Z-10.178
X328.895 Y257.39 Z-10.192
X328.894 Y257.001 Z-10.206
X328.909 Y256.611 Z-10.22
X328.939 Y256.223 Z-10.234
X328.985 Y255.836 Z-10.249
X329.047 Y255.451 Z-10.263
X329.125 Y255.07 Z-10.277
X329.217 Y254.691 Z-10.291
X329.325 Y254.317 Z-10.306
X329.448 Y253.947 Z-10.32
X329.586 Y253.583 Z-10.334
X329.739 Y253.224 Z-10.348
X329.906 Y252.872 Z-10.362
X330.087 Y252.527 Z-10.377
X330.282 Y252.19 Z-10.391
X330.49 Y251.861 Z-10.405
X330.712 Y251.541 Z-10.419
X330.946 Y251.229 Z-10.434
X331.193 Y250.928 Z-10.448
X331.452 Y250.637 Z-10.462
X331.722 Y250.356 Z-10.476
X332.004 Y250.087 Z-10.491
X332.296 Y249.83 Z-10.505
X332.599 Y249.584 Z-10.519
X332.911 Y249.351 Z-10.533
X333.232 Y249.131 Z-10.547
X333.562 Y248.924 Z-10.562
X333.9 Y248.73 Z-10.576
X334.246 Y248.551 Z-10.59
X334.599 Y248.385 Z-10.604
X334.958 Y248.234 Z-10.619
X335.323 Y248.098 Z-10.633
X335.693 Y247.976 Z-10.647
X336.068 Y247.87 Z-10.661
X336.447 Y247.779 Z-10.675
X336.829 Y247.703 Z-10.69
X337.214 Y247.643 Z-10.704
X337.6 Y247.599 Z-10.718
X337.987 Y247.57 Z-10.732
X338.376 Y247.557 Z-10.747
X338.764 Y247.56 Z-10.761
X339.153 Y247.579 Z-10.775
X339.54 Y247.613 Z-10.789
X339.925 Y247.663 Z-10.803
X340.308 Y247.728 Z-10.818
X340.688 Y247.809 Z-10.832
X341.065 Y247.906 Z-10.846
X341.437 Y248.017 Z-10.86
X341.804 Y248.144 Z-10.875
X342.166 Y248.285 Z-10.889
X342.522 Y248.441 Z-10.903
X342.872 Y248.611 Z-10.917
X343.214 Y248.795 Z-10.932
X343.548 Y248.993 Z-10.946
X343.874 Y249.204 Z-10.96
X344.192 Y249.429 Z-10.974
X344.5 Y249.666 Z-10.988
X344.798 Y249.915 Z-11.003
X345.086 Y250.176 Z-11.017
X345.363 Y250.449 Z-11.031
X345.628 Y250.732 Z-11.045
X345.882 Y251.026 Z-11.06
X346.124 Y251.331 Z-11.074
X346.353 Y251.644 Z-11.088
X346.57 Y251.967 Z-11.102
X346.773 Y252.298 Z-11.116
X346.962 Y252.638 Z-11.131
X347.138 Y252.984 Z-11.145
X347.299 Y253.338 Z-11.159
X347.446 Y253.698 Z-11.173
X347.579 Y254.063 Z-11.188
X347.696 Y254.433 Z-11.202
X347.798 Y254.808 Z-11.216
X347.885 Y255.187 Z-11.23
X347.957 Y255.569 Z-11.244
X348.013 Y255.954 Z-11.259
X348.053 Y256.34 Z-11.273
X348.078 Y256.728 Z-11.287
X348.087 Y257.116 Z-11.301
X348.08 Y257.505 Z-11.316
X348.058 Y257.893 Z-11.33
X348.019 Y258.28 Z-11.344
X347.965 Y258.664 Z-11.358
X347.896 Y259.047 Z-11.373
X347.811 Y259.426 Z-11.387
X347.711 Y259.801 Z-11.401
X347.596 Y260.172 Z-11.415
X347.466 Y260.537 Z-11.429
X347.321 Y260.896 Z-11.444
X347.162 Y261.25 Z-11.458
X346.989 Y261.597 Z-11.472
X346.802 Y261.936 Z-11.486
X346.601 Y262.268 Z-11.501
X346.387 Y262.591 Z-11.515
X346.16 Y262.905 Z-11.529
X345.921 Y263.21 Z-11.543
X345.669 Y263.505 Z-11.557
X345.405 Y263.789 Z-11.572
X345.131 Y264.062 Z-11.586
X344.845 Y264.324 Z-11.6
X344.549 Y264.575 Z-11.614
X344.243 Y264.813 Z-11.629
X343.928 Y265.038 Z-11.643
X343.604 Y265.251 Z-11.657
X343.271 Y265.45 Z-11.671
X342.931 Y265.636 Z-11.685
X342.583 Y265.807 Z-11.7
X342.229 Y265.965 Z-11.714
X341.869 Y266.108 Z-11.728
X341.503 Y266.236 Z-11.742
X341.132 Y266.349 Z-11.757
X340.757 Y266.447 Z-11.771
X340.379 Y266.53 Z-11.785
X339.997 Y266.598 Z-11.799
X339.613 Y266.65 Z-11.813
X339.227 Y266.686 Z-11.828
X338.84 Y266.707 Z-11.842
X338.452 Y266.712 Z-11.856
X338.065 Y266.701 Z-11.87
X337.678 Y266.674 Z-11.885
X337.293 Y266.632 Z-11.899
X336.91 Y266.575 Z-11.913
X336.529 Y266.501 Z-11.927
X336.152 Y266.413 Z-11.942
X335.778 Y266.309 Z-11.956
X335.409 Y266.19 Z-11.97
X335.045 Y266.057 Z-11.984
X334.687 Y265.908 Z-11.998
X334.335 Y265.746 Z-12.013
X333.99 Y265.569 Z-12.027
X333.653 Y265.378 Z-12.041
X333.323 Y265.174 Z-12.055
X333.002 Y264.957 Z-12.07
X332.691 Y264.727 Z-12.084
X332.388 Y264.484 Z-12.098
X332.097 Y264.23 Z-12.112
X331.816 Y263.964 Z-12.126
X331.546 Y263.687 Z-12.141
X331.288 Y263.4 Z-12.155
X331.041 Y263.102 Z-12.169
X330.807 Y262.795 Z-12.183
X330.585 Y262.478 Z-12.198
X330.376 Y262.152 Z-12.212
X330.181 Y261.819 Z-12.226
X329.999 Y261.477 Z-12.24
X329.832 Y261.129 Z-12.254
X329.678 Y260.774 Z-12.269
X329.539 Y260.413 Z-12.283
X329.415 Y260.047 Z-12.297
X329.306 Y259.676 Z-12.311
X329.212 Y259.301 Z-12.326
X329.133 Y258.923 Z-12.34
X329.07 Y258.541 Z-12.354
X329.022 Y258.158 Z-12.368
X328.989 Y257.772 Z-12.383
X328.973 Y257.386 Z-12.397
X328.972 Y256.999 Z-12.411
X328.987 Y256.613 Z-12.425
X329.017 Y256.228 Z-12.439
X329.063 Y255.844 Z-12.454
X329.124 Y255.462 Z-12.468
X329.201 Y255.083 Z-12.482
X329.293 Y254.708 Z-12.496
X329.401 Y254.336 Z-12.511
X329.523 Y253.969 Z-12.525
X329.66 Y253.608 Z-12.539
X329.811 Y253.252 Z-12.553
X329.977 Y252.903 Z-12.567
X330.157 Y252.561 Z-12.582
X330.351 Y252.226 Z-12.596
X330.558 Y251.899 Z-12.61
X330.778 Y251.582 Z-12.624
X331.011 Y251.273 Z-12.639
X331.256 Y250.974 Z-12.653
X331.513 Y250.685 Z-12.667
X331.781 Y250.407 Z-12.681
X332.061 Y250.14 Z-12.695
X332.351 Y249.884 Z-12.71
X332.651 Y249.641 Z-12.724
X332.961 Y249.409 Z-12.738
X333.28 Y249.191 Z-12.752
X333.608 Y248.986 Z-12.767
X333.943 Y248.794 Z-12.781
